<?xml version="1.0" encoding="UTF-8"?>
<map version="1.10" tiledversion="1.11.1" orientation="orthogonal" renderorder="left-up" width="50" height="50" tilewidth="32" tileheight="32" infinite="0" nextlayerid="15" nextobjectid="81">
 <editorsettings>
  <export target="dummy.json" format="json"/>
 </editorsettings>
 <tileset firstgid="1" name="hills" tilewidth="32" tileheight="32" tilecount="400" columns="25">
  <image source="../../../client/assets/tilesets/fantasy-lands/hills.png" width="800" height="512"/>
 </tileset>
 <tileset firstgid="401" name="dummy-tile" tilewidth="32" tileheight="32" tilecount="9" columns="9">
  <properties>
   <property name="required" type="bool" value="false"/>
  </properties>
  <image source="../../../client/assets/tilesets/dummy-tile.png" width="288" height="32"/>
  <tile id="0">
   <properties>
    <property name="collider" type="int" value="0"/>
   </properties>
  </tile>
  <tile id="1">
   <properties>
    <property name="collider" type="int" value="1"/>
   </properties>
  </tile>
  <tile id="2">
   <properties>
    <property name="collider" type="int" value="2"/>
   </properties>
  </tile>
  <tile id="3">
   <properties>
    <property name="collider" type="int" value="3"/>
   </properties>
  </tile>
  <tile id="4">
   <properties>
    <property name="collider" type="int" value="4"/>
   </properties>
  </tile>
  <tile id="5">
   <properties>
    <property name="collider" type="int" value="5"/>
   </properties>
  </tile>
  <tile id="6">
   <properties>
    <property name="collider" type="int" value="6"/>
   </properties>
  </tile>
  <tile id="7">
   <properties>
    <property name="collider" type="int" value="7"/>
   </properties>
  </tile>
  <tile id="8">
   <properties>
    <property name="collider" type="int" value="8"/>
   </properties>
  </tile>
 </tileset>
 <tileset firstgid="410" name="ground_dec_props" tilewidth="32" tileheight="32" tilecount="360" columns="12" objectalignment="topleft">
  <image source="../../../client/assets/tilesets/fantasy-lands/ground_dec_props.png" width="384" height="960"/>
 </tileset>
 <tileset firstgid="770" name="decorations_medium" tilewidth="64" tileheight="64" tilecount="7" columns="7" objectalignment="topleft">
  <image source="../../../client/assets/tilesets/fantasy-lands/decorations_medium.png" width="448" height="64"/>
  <tile id="0">
   <objectgroup draworder="index" id="2">
    <object id="1" type="collider" x="12.625" y="29.625" width="38.5" height="27.25"/>
   </objectgroup>
  </tile>
  <tile id="1">
   <objectgroup draworder="index" id="2">
    <object id="1" type="collider" x="12" y="26.875" width="40.375" height="30.75"/>
   </objectgroup>
  </tile>
  <tile id="2">
   <objectgroup draworder="index" id="2">
    <object id="1" type="collider" x="11.375" y="27.625" width="40.875" height="28.25"/>
   </objectgroup>
  </tile>
  <tile id="3">
   <objectgroup draworder="index" id="2">
    <object id="1" type="collider" x="15.375" y="29.5" width="30.5" height="26.5"/>
   </objectgroup>
  </tile>
  <tile id="4">
   <objectgroup draworder="index" id="2">
    <object id="1" type="collider" x="17.625" y="34.5" width="29.25" height="20.625"/>
   </objectgroup>
  </tile>
  <tile id="5">
   <objectgroup draworder="index" id="2">
    <object id="1" type="collider" x="14.875" y="32.25" width="34.5" height="23.75"/>
   </objectgroup>
  </tile>
  <tile id="6">
   <objectgroup draworder="index" id="2">
    <object id="1" type="collider" x="15.25" y="34.875" width="32.875" height="20.25"/>
   </objectgroup>
  </tile>
 </tileset>
 <tileset firstgid="777" name="tree" tilewidth="128" tileheight="128" tilecount="36" columns="4" objectalignment="topleft">
  <grid orientation="orthogonal" width="32" height="32"/>
  <image source="../../../client/assets/tilesets/fantasy-lands/Tree_A_v1.png" width="512" height="1152"/>
  <tile id="11">
   <objectgroup draworder="index" id="2">
    <object id="1" type="collider" x="46.6136" y="96.2727" width="40.4545" height="24.0682"/>
   </objectgroup>
   <animation>
    <frame tileid="0" duration="100"/>
    <frame tileid="1" duration="100"/>
    <frame tileid="2" duration="100"/>
    <frame tileid="3" duration="100"/>
    <frame tileid="4" duration="100"/>
    <frame tileid="5" duration="100"/>
    <frame tileid="6" duration="100"/>
    <frame tileid="7" duration="100"/>
    <frame tileid="8" duration="100"/>
    <frame tileid="9" duration="100"/>
    <frame tileid="10" duration="100"/>
    <frame tileid="11" duration="100"/>
   </animation>
  </tile>
  <tile id="23">
   <objectgroup draworder="index" id="2">
    <object id="1" type="collider" x="48.0455" y="95.5" width="38.8409" height="26"/>
   </objectgroup>
   <animation>
    <frame tileid="12" duration="100"/>
    <frame tileid="13" duration="100"/>
    <frame tileid="14" duration="100"/>
    <frame tileid="15" duration="100"/>
    <frame tileid="16" duration="100"/>
    <frame tileid="17" duration="100"/>
    <frame tileid="18" duration="100"/>
    <frame tileid="19" duration="100"/>
    <frame tileid="20" duration="100"/>
    <frame tileid="21" duration="100"/>
    <frame tileid="22" duration="100"/>
    <frame tileid="23" duration="100"/>
   </animation>
  </tile>
  <tile id="35">
   <objectgroup draworder="index" id="2">
    <object id="1" type="collider" x="48.2273" y="95.5" width="37.9091" height="24.9318"/>
   </objectgroup>
   <animation>
    <frame tileid="24" duration="100"/>
    <frame tileid="25" duration="100"/>
    <frame tileid="26" duration="100"/>
    <frame tileid="27" duration="100"/>
    <frame tileid="28" duration="100"/>
    <frame tileid="29" duration="100"/>
    <frame tileid="30" duration="100"/>
    <frame tileid="31" duration="100"/>
    <frame tileid="32" duration="100"/>
    <frame tileid="33" duration="100"/>
    <frame tileid="34" duration="100"/>
    <frame tileid="35" duration="100"/>
   </animation>
  </tile>
 </tileset>
 <tileset firstgid="813" name="small-buildings" tilewidth="160" tileheight="192" tilecount="3" columns="3" objectalignment="topleft">
  <image source="../../../client/assets/tilesets/fantasy-lands/small_buildings.png" width="480" height="192"/>
  <tile id="0">
   <objectgroup draworder="index" id="2">
    <object id="1" type="collider" x="14" y="82.3333" width="131.333" height="91"/>
   </objectgroup>
  </tile>
  <tile id="1">
   <objectgroup draworder="index" id="2">
    <object id="1" type="collider" x="21" y="76.3333" width="118.333" height="82"/>
   </objectgroup>
  </tile>
  <tile id="2">
   <objectgroup draworder="index" id="2">
    <object id="1" type="collider" x="23.3333" y="61.3333" width="113.333" height="97.6667"/>
   </objectgroup>
  </tile>
 </tileset>
 <tileset firstgid="816" name="ground" tilewidth="32" tileheight="32" tilecount="1056" columns="32">
  <image source="../../../client/assets/tilesets/fantasy-lands/ground.png" width="1024" height="1056"/>
  <wangsets>
   <wangset name="dirty_road" type="corner" tile="-1">
    <wangcolor name="r" color="#ff0000" tile="-1" probability="1"/>
    <wangtile tileid="232" wangid="0,0,0,1,0,0,0,0"/>
    <wangtile tileid="233" wangid="0,0,0,1,0,1,0,0"/>
    <wangtile tileid="234" wangid="0,0,0,0,0,1,0,0"/>
    <wangtile tileid="235" wangid="0,1,0,0,0,1,0,1"/>
    <wangtile tileid="236" wangid="0,1,0,0,0,0,0,1"/>
    <wangtile tileid="237" wangid="0,1,0,1,0,0,0,1"/>
    <wangtile tileid="264" wangid="0,1,0,1,0,0,0,0"/>
    <wangtile tileid="265" wangid="0,1,0,1,0,1,0,1"/>
    <wangtile tileid="266" wangid="0,0,0,0,0,1,0,1"/>
    <wangtile tileid="267" wangid="0,0,0,0,0,1,0,1"/>
    <wangtile tileid="269" wangid="0,1,0,1,0,0,0,0"/>
    <wangtile tileid="296" wangid="0,1,0,0,0,0,0,0"/>
    <wangtile tileid="297" wangid="0,1,0,0,0,0,0,1"/>
    <wangtile tileid="298" wangid="0,0,0,0,0,0,0,1"/>
    <wangtile tileid="299" wangid="0,0,0,1,0,1,0,1"/>
    <wangtile tileid="300" wangid="0,0,0,1,0,1,0,0"/>
    <wangtile tileid="301" wangid="0,1,0,1,0,1,0,0"/>
   </wangset>
   <wangset name="gray_road" type="corner" tile="-1">
    <wangcolor name="r" color="#ff0000" tile="-1" probability="1"/>
    <wangtile tileid="224" wangid="0,0,0,1,0,0,0,0"/>
    <wangtile tileid="225" wangid="0,0,0,1,0,1,0,0"/>
    <wangtile tileid="226" wangid="0,0,0,0,0,1,0,0"/>
    <wangtile tileid="227" wangid="0,1,0,0,0,1,0,1"/>
    <wangtile tileid="228" wangid="0,1,0,0,0,0,0,1"/>
    <wangtile tileid="229" wangid="0,1,0,1,0,0,0,1"/>
    <wangtile tileid="256" wangid="0,1,0,1,0,0,0,0"/>
    <wangtile tileid="257" wangid="0,1,0,1,0,1,0,1"/>
    <wangtile tileid="258" wangid="0,0,0,0,0,1,0,1"/>
    <wangtile tileid="259" wangid="0,0,0,0,0,1,0,1"/>
    <wangtile tileid="261" wangid="0,1,0,1,0,0,0,0"/>
    <wangtile tileid="288" wangid="0,1,0,0,0,0,0,0"/>
    <wangtile tileid="289" wangid="0,1,0,0,0,0,0,1"/>
    <wangtile tileid="290" wangid="0,0,0,0,0,0,0,1"/>
    <wangtile tileid="291" wangid="0,0,0,1,0,1,0,1"/>
    <wangtile tileid="292" wangid="0,0,0,1,0,1,0,0"/>
    <wangtile tileid="293" wangid="0,1,0,1,0,1,0,0"/>
   </wangset>
   <wangset name="grass_road" type="corner" tile="-1">
    <wangcolor name="r" color="#ff0000" tile="-1" probability="1"/>
    <wangtile tileid="0" wangid="0,0,0,1,0,0,0,0"/>
    <wangtile tileid="1" wangid="0,0,0,1,0,1,0,0"/>
    <wangtile tileid="2" wangid="0,0,0,0,0,1,0,0"/>
    <wangtile tileid="3" wangid="0,1,0,0,0,1,0,1"/>
    <wangtile tileid="4" wangid="0,1,0,0,0,0,0,1"/>
    <wangtile tileid="5" wangid="0,1,0,1,0,0,0,1"/>
    <wangtile tileid="32" wangid="0,1,0,1,0,0,0,0"/>
    <wangtile tileid="33" wangid="0,1,0,1,0,1,0,1"/>
    <wangtile tileid="34" wangid="0,0,0,0,0,1,0,1"/>
    <wangtile tileid="35" wangid="0,0,0,0,0,1,0,1"/>
    <wangtile tileid="37" wangid="0,1,0,1,0,0,0,0"/>
    <wangtile tileid="64" wangid="0,1,0,0,0,0,0,0"/>
    <wangtile tileid="65" wangid="0,1,0,0,0,0,0,1"/>
    <wangtile tileid="66" wangid="0,0,0,0,0,0,0,1"/>
    <wangtile tileid="67" wangid="0,0,0,1,0,1,0,1"/>
    <wangtile tileid="68" wangid="0,0,0,1,0,1,0,0"/>
    <wangtile tileid="69" wangid="0,1,0,1,0,1,0,0"/>
   </wangset>
   <wangset name="grass_road_inverse" type="corner" tile="-1">
    <wangcolor name="r" color="#ff0000" tile="-1" probability="1"/>
    <wangtile tileid="8" wangid="0,0,0,1,0,0,0,0"/>
    <wangtile tileid="9" wangid="0,0,0,1,0,1,0,0"/>
    <wangtile tileid="10" wangid="0,0,0,0,0,1,0,0"/>
    <wangtile tileid="11" wangid="0,1,0,0,0,1,0,1"/>
    <wangtile tileid="12" wangid="0,1,0,0,0,0,0,1"/>
    <wangtile tileid="13" wangid="0,1,0,1,0,0,0,1"/>
    <wangtile tileid="40" wangid="0,1,0,1,0,0,0,0"/>
    <wangtile tileid="41" wangid="0,1,0,1,0,1,0,1"/>
    <wangtile tileid="42" wangid="0,0,0,0,0,1,0,1"/>
    <wangtile tileid="43" wangid="0,0,0,0,0,1,0,1"/>
    <wangtile tileid="45" wangid="0,1,0,1,0,0,0,0"/>
    <wangtile tileid="72" wangid="0,1,0,0,0,0,0,0"/>
    <wangtile tileid="73" wangid="0,1,0,0,0,0,0,1"/>
    <wangtile tileid="74" wangid="0,0,0,0,0,0,0,1"/>
    <wangtile tileid="75" wangid="0,0,0,1,0,1,0,1"/>
    <wangtile tileid="76" wangid="0,0,0,1,0,1,0,0"/>
    <wangtile tileid="77" wangid="0,1,0,1,0,1,0,0"/>
   </wangset>
  </wangsets>
 </tileset>
 <layer id="1" name="ground" width="50" height="50">
  <data encoding="csv">
1528,1560,1532,1500,1533,1497,1592,1625,1530,1534,1596,1596,1529,1624,1598,1534,1594,1498,1630,1596,1561,1531,1529,1565,1566,1562,1628,1498,1562,1598,1630,1499,1566,1562,1624,1597,1496,1630,1596,1594,1597,1597,1596,1596,1630,1530,1528,1561,1598,1531,
1630,1530,1564,1595,1630,1531,1528,1532,1624,1497,1628,1592,1534,816,817,817,884,884,884,817,884,818,1528,1565,1594,1528,1594,1594,1593,1594,1592,1565,1598,1563,1531,1594,1530,1560,1561,1501,1500,1597,1562,1597,1594,1593,1598,1627,1593,1627,
1499,1530,1594,1496,1529,1534,1531,816,884,884,884,817,884,885,849,849,849,849,849,849,849,883,817,884,817,817,884,818,1564,1562,1562,1531,816,817,817,884,817,818,1598,1502,1533,1566,1532,1596,1501,1533,1592,1502,1625,1501,
1625,1499,1595,1499,1530,1626,816,885,849,849,849,849,849,849,849,819,881,881,820,820,820,881,881,820,821,849,849,883,817,817,884,817,885,819,881,821,849,883,884,818,1566,1561,1597,1533,1629,1596,1597,1592,1626,1561,
1629,1564,1499,1533,1628,816,885,849,849,819,881,881,881,881,881,882,1528,1500,1562,1625,1595,1597,1596,1626,880,881,820,820,881,881,881,820,881,882,1597,880,820,881,821,883,884,817,817,818,1500,1528,1498,1597,1630,1501,
1502,1624,1562,1598,1630,853,849,849,819,882,1626,1592,1566,1562,1592,1598,1565,1532,1627,1624,1499,1630,1562,1628,1596,1565,1563,1496,1531,1598,1502,1528,1595,1531,1625,1625,1560,1563,880,820,820,820,821,883,817,818,1593,1502,1531,1533,
817,817,884,884,817,885,849,819,882,1598,1596,1593,1563,1502,1048,1049,1116,1049,1049,1049,1050,1595,1595,1627,1497,1597,1566,1595,1564,1501,1501,1595,1566,1498,1528,1561,1593,1532,1529,1566,1528,1496,880,881,821,883,818,816,884,817,
849,849,849,849,849,849,849,851,1497,1532,1563,1498,1048,1049,1117,1081,1081,1081,1081,1081,1115,1049,1049,1049,1050,1597,1625,1532,1592,1561,1048,1116,1116,1049,1116,1049,1116,1116,1049,1049,1116,1049,1049,1050,880,821,883,885,849,849,
881,820,881,820,820,820,820,882,1627,1498,1528,1048,1117,1081,1081,1081,1051,1052,1053,1081,1051,1052,1052,1053,1115,1116,1050,1048,1049,1049,1117,1081,1081,1081,1081,1081,1081,1081,1081,1081,1081,1081,1081,1083,1594,880,821,849,849,849,
1533,1561,1534,1595,1501,1502,1497,1628,1532,1532,1048,1117,1051,1052,1113,1052,1114,1560,1112,1052,1114,1534,1598,1112,1052,1053,1115,1117,1081,1081,1081,1081,1051,1113,1052,1052,1113,1052,1052,1052,1113,1053,1081,1083,1500,1497,880,821,849,849,
1529,1629,1502,1595,1500,1628,1627,1560,1048,1049,1117,1081,1082,1624,1595,1598,1563,1530,1624,1498,1532,1561,1566,1592,1534,1085,1081,1081,1081,1051,1052,1052,1114,1626,1532,1499,1564,1624,1502,1594,1048,1117,1051,1114,1533,1502,1597,880,881,881,
1597,1596,1528,1496,1629,1624,1560,1048,1117,1051,1053,1081,1083,1628,1628,1593,1593,1628,1502,1528,1566,1531,1498,1630,1048,1117,1081,1081,1051,1114,1499,1564,1630,1533,1560,1592,1502,1499,1500,1563,1080,1081,1082,1626,1499,1501,1592,1626,1532,1532,
1593,1530,1562,1592,1625,1594,1048,1117,1051,1114,1112,1052,1114,1628,1624,1630,1530,1565,1501,1629,1533,1532,1501,1566,1080,1081,1081,1051,1114,1566,1498,1501,1501,1593,1529,1562,1626,1502,1496,1497,1080,1081,1083,1502,1628,1596,1629,1530,1497,1563,
1597,1596,1562,1598,1534,1048,1117,1051,1114,1531,1561,1534,1530,1630,1532,1596,1499,1624,1533,1530,1595,1593,1628,1625,1080,1081,1051,1114,1528,1596,1594,1593,1593,1533,1592,1563,1531,1597,1533,1496,1085,1081,1115,1050,1530,1627,1496,1594,1528,1498,
1496,1598,1561,1528,1048,1117,1051,1114,1502,1630,1502,1534,1498,1499,1528,1560,1565,1592,1627,1531,1562,1529,1533,1048,1117,1081,1083,1501,1496,1499,1598,1625,1499,1500,1534,1562,1531,1628,1592,1528,1080,1081,1081,1083,1597,1501,1501,1530,1502,1529,
1532,1560,1530,1625,1080,1051,1114,1531,1596,1597,1564,1625,1560,1593,1598,1497,1530,1596,1594,1595,1496,1593,1497,1080,1081,1081,1083,1592,1502,1595,1626,1595,1531,1530,1597,1595,1499,1533,1564,1500,1085,1081,1081,1082,1626,1500,1566,1528,1532,1625,
1598,1501,1560,1594,1080,1082,1532,1627,1528,1565,1532,1528,1593,1625,1628,1497,1626,1598,1531,1561,1564,1594,1597,1085,1081,1081,1082,1496,1597,1594,1597,1593,1498,1598,1592,1499,1502,1628,1531,1593,1080,1081,1051,1114,1564,1628,1532,1502,1592,1594,
1629,1533,1531,1597,1085,1115,1050,1594,1596,1629,1596,1500,1592,1592,1626,1496,1530,1531,1562,1531,1563,1499,1533,1085,1081,1081,1082,1593,1624,1561,1597,1499,1498,1596,1533,1564,1629,1562,1598,1048,1117,1081,1082,1498,1628,1625,1500,1565,1560,1630,
1499,1528,1597,1532,1112,1053,1083,1533,1627,1598,1597,1562,1565,1501,1528,1596,1560,1566,1630,1627,1530,1496,1530,1112,1053,1081,1083,1529,1560,1560,1502,1532,1497,1564,1595,1496,1594,1496,1592,1080,1081,1081,1082,1532,1534,1529,1497,1627,1498,1626,
1530,1566,1532,1592,1562,1085,1115,1050,1563,1625,1560,1630,1563,1564,1561,1598,1532,1534,1629,1560,1500,1564,1628,1627,1085,1081,1083,1598,1498,1624,1630,1529,1530,1496,1592,1597,1624,1502,1626,1080,1081,1051,1114,1598,1627,1500,1630,1624,1629,1595,
1595,1594,1596,1531,1592,1112,1053,1115,1050,1496,1594,1625,1530,1593,1626,1561,1533,1626,1562,1534,1566,1496,1595,1048,1117,1081,1082,1594,1498,1499,1501,1561,1565,1598,1629,1592,1625,1564,1595,1085,1081,1115,1050,1596,1626,1560,1501,1497,1533,1597,
1595,1624,1624,1630,1499,1592,1112,1053,1083,1501,1597,1501,1594,1534,1532,1624,1529,1592,1529,1528,1528,1595,1534,1085,1081,1081,1082,1534,1564,1532,1624,1593,1629,1528,1594,1560,1531,1595,1595,1080,1081,1081,1115,1050,1502,1534,1626,1629,1531,1598,
1530,1531,1564,1566,1597,1626,1598,1080,1083,1566,1597,1502,1532,1626,1598,1529,1564,1596,1498,1594,1561,1565,1595,1080,1081,1081,1082,1630,1624,1563,1560,1630,1501,1629,1628,1532,1532,1597,1530,1112,1053,1081,1081,1082,1629,1561,1594,1594,1497,1626,
1498,1625,1592,1593,1501,1048,1049,1117,1083,1629,1528,1598,1528,1566,1497,1593,1531,1499,1595,1563,1529,1565,1597,1085,1051,1113,1114,1497,1594,1625,1594,1564,1502,1497,1531,1531,1498,1560,1564,1528,1112,1053,1081,1082,1533,1597,1497,1532,1528,1528,
1597,1531,1561,1501,1048,1117,1051,1052,1114,1529,1561,1528,1629,1502,1630,1563,1563,1562,1533,1500,1564,1530,1624,1080,1083,1496,1530,1560,1563,1630,1560,1502,1561,1501,1564,1592,1530,1627,1501,1563,1529,1112,1053,1082,1625,1534,1597,1625,1534,1562,
1594,1531,1563,1624,1080,1051,1114,1596,1498,1561,1529,1624,1532,1594,1595,1629,1528,1501,1497,1595,1624,1533,1534,1080,1082,1564,1624,1533,1560,1564,1496,1627,1531,1626,1502,1624,1531,1594,1534,1593,1592,1497,1080,1082,1595,1560,1598,1532,1598,1627,
1534,1562,1498,1563,1080,1082,1498,1597,1624,1499,1530,1563,1499,1597,1561,1628,1627,1593,1501,1625,1532,1528,1502,1080,1082,1630,1627,1627,1498,1593,1499,1562,1627,1563,1528,1566,1532,1594,1624,1597,1501,1048,1117,1082,1565,1593,1563,1624,1565,1563,
1529,1529,1628,1529,1080,1115,1050,1534,1562,1562,1628,1560,1628,1629,1564,1566,1561,1564,1625,1592,1563,1560,1529,1085,1083,1048,1116,1116,1049,1116,1116,1049,1116,1049,1116,1116,1049,1116,1116,1049,1116,1117,1081,1083,1596,1593,1593,1501,1597,1499,
1562,1500,1533,1500,1112,1053,1115,1116,1050,1530,1500,1497,1497,1596,1594,1500,1534,1534,1593,1496,1048,1049,1049,1117,1115,1117,1051,1113,1052,1052,1113,1053,1081,1081,1051,1053,1081,1081,1081,1081,1051,1052,1053,1083,1630,1528,1596,1499,1497,1625,
1565,1560,1497,1497,1595,1112,1053,1081,1115,1116,1116,1049,1049,1049,1049,1049,1049,1116,1049,1049,1117,1051,1113,1053,1081,1051,1114,1624,1565,1624,1596,1112,1052,1113,1114,1112,1052,1052,1113,1113,1114,1598,1080,1115,1050,1496,1502,1594,1528,1628,
1498,1565,1498,1529,1561,1626,1085,1051,1052,1113,1113,1052,1052,1052,1113,1113,1113,1113,1052,1113,1052,1114,1564,1080,1081,1083,1560,1628,1625,1560,1564,1624,1498,1564,1625,1502,1595,1561,1529,1564,1629,1629,1085,1081,1082,1566,1593,1593,1564,1498,
1528,1532,1592,1530,1592,1625,1080,1115,1050,1499,1501,1629,1595,1533,1497,1532,1563,1566,1592,1528,1566,1534,1497,1080,1081,1083,1532,1048,1049,1049,1050,1625,1502,1594,1565,1627,1497,1530,1566,1562,1628,1624,1080,1081,1115,1050,1533,1534,1501,1565,
1627,1498,1593,1564,1598,1594,1112,1053,1082,1593,1628,1592,1627,1562,1530,1501,1564,1627,1596,1497,1593,1596,1532,1112,1053,1115,1049,1117,1051,1053,1082,1628,1624,1625,1498,1624,1561,1594,1626,1528,1597,1497,1085,1081,1081,1083,1566,1596,1498,1496,
1563,1497,1629,1594,1628,1596,1595,1080,1115,1050,1533,1624,1496,1627,1560,1626,1594,1563,1533,1592,1630,1529,1529,1500,1112,1052,1052,1113,1114,1112,1114,1629,1595,1501,1565,1598,1534,1597,1533,1499,1593,1501,1112,1053,1081,1083,1497,1497,1592,1628,
1533,1625,1592,1597,1596,1500,1534,1080,1081,1083,1528,1502,1534,1529,1499,1502,1563,1564,1593,1534,1564,1500,1530,1532,1624,1628,1498,1534,1592,1595,1528,1497,1592,1628,1497,1562,1497,1531,1563,1562,1530,1531,1593,1080,1081,1083,1563,1624,1497,1625,
1627,1502,1565,1593,1498,1531,1530,1080,1081,1115,1049,1116,1049,1050,1626,1564,1563,1593,1594,1565,1627,1562,1498,1593,1497,1561,1562,1593,1596,1562,1629,1562,1499,1594,1565,1496,1532,1531,1596,1561,1598,1502,1594,1085,1081,1083,1502,1597,1565,1592,
1532,1625,1048,1116,1049,1050,1496,1085,1081,1081,1081,1051,1113,1114,1564,1562,1627,1500,1501,1625,1594,1626,1532,1528,1532,1533,1501,1532,1561,1563,1629,1628,1501,1597,1628,1497,1501,1594,1533,1561,1534,1625,1530,1085,1081,1115,1050,1627,1597,1563,
1595,1528,1085,1081,1081,1115,1116,1117,1051,1052,1113,1114,1628,1560,1560,1560,1627,1564,1630,1624,1595,1626,1534,1594,1561,1597,1630,1533,1500,1597,1529,1533,1497,1500,1627,1531,1592,1624,1625,1534,1562,1563,1627,1080,1081,1081,1082,1595,1630,1593,
1498,1560,1112,1053,1081,1081,1051,1053,1082,1592,1626,1531,1566,1565,1596,1501,1598,1534,1530,1531,1530,1596,1626,1531,1624,1532,1531,1501,1566,1502,1593,1497,1562,1624,1500,1630,1627,1566,1561,1625,1502,1560,1496,1085,1051,1113,1114,1500,816,817,
1502,1529,1500,1112,1113,1113,1114,1080,1082,1561,1529,1496,1500,1626,1499,1630,1598,1564,1624,1627,1598,1594,1624,1496,1502,1628,1497,1626,1563,1529,1563,1496,1593,1496,1563,1560,1592,1626,1530,1598,1626,1593,1048,1117,1082,1594,1501,816,885,849,
1625,1565,1596,1560,1630,1595,1566,1080,1115,1049,1116,1049,1049,1050,1596,1598,1563,1594,1597,1598,1497,1566,1626,1627,1566,1561,1629,1560,1565,1501,1630,1594,1629,1532,1496,1496,1530,1499,1563,1625,1564,1500,1080,1051,1114,1625,1625,848,849,849,
1530,1533,1596,1564,1529,1592,1498,1112,1113,1052,1052,1113,1053,1115,1050,1593,1627,1560,1562,1528,1496,1498,1532,1565,1499,1625,1563,1562,1533,1532,1529,1562,1561,1496,1532,1627,1531,1501,1597,1498,1565,1528,1080,1082,1500,1593,1595,848,849,849,
1628,1562,1530,1597,1500,1497,1501,1499,1592,1627,1625,1531,1112,1053,1115,1050,1628,1625,1533,1565,1502,1048,1049,1049,1116,1049,1049,1050,1629,1592,1530,1533,1624,1629,1594,1533,1565,1528,1048,1116,1049,1049,1117,1082,1532,1625,1499,848,819,881,
1530,1501,1562,1595,1499,1625,1562,1534,1532,1529,1497,1561,1501,1080,1081,1115,1050,1048,1049,1049,1049,1117,1081,1081,1081,1081,1081,1115,1116,1049,1049,1049,1116,1049,1049,1049,1116,1049,1117,1081,1051,1052,1113,1114,1533,1561,1598,848,851,1500,
1500,1530,1598,1564,1626,1627,1566,1562,1563,1625,1499,1566,1501,1080,1081,1081,1115,1117,1081,1081,1081,1081,1081,1051,1113,1053,1081,1081,1081,1081,1081,1081,1081,1081,1081,1081,1081,1081,1051,1113,1114,1628,1562,1592,1534,1593,816,885,850,1596,
1500,1593,1629,1593,1598,1498,1502,1500,1561,1627,1534,1625,1560,1112,1053,1081,1081,1081,1081,1051,1052,1052,1113,1114,1629,1112,1113,1052,1113,1052,1113,1052,1052,1052,1052,1113,1052,1113,1114,1594,1564,1627,1530,1562,1500,816,885,819,882,1597,
1502,1497,1596,1628,1596,1533,1497,1500,1560,1560,1532,1625,1626,1564,1112,1052,1113,1052,1113,1114,1629,1626,1561,1534,1597,1560,1500,1528,1593,1497,1598,1593,1500,1596,816,884,817,817,818,1529,1532,1502,816,884,884,885,819,882,1597,1595,
1532,1594,1592,1597,1498,1595,1501,1597,1534,1500,1592,1532,1564,1533,1528,1529,1499,1496,1531,1629,1528,1628,1596,1624,1629,1629,1593,1595,816,817,817,817,817,817,885,849,819,821,883,884,817,884,885,819,820,881,882,1529,1498,1594,
1598,1499,1499,1630,1500,1566,1565,1562,1501,1497,1534,1532,1560,1499,1560,1531,1627,1562,1497,1502,1625,1563,1497,1627,1630,1598,1593,1497,853,849,849,849,849,849,849,849,850,880,881,820,820,881,881,882,1624,1624,1496,1498,1598,1560,
1629,1629,1592,1528,1563,1630,1597,1562,1563,1528,1498,1596,1593,1500,1627,1528,1628,1564,1626,1597,1624,1499,1592,1531,1597,1499,1531,1501,853,849,819,881,881,820,881,881,882,1628,1593,1592,1625,1564,1593,1596,1501,1497,1530,1497,1566,1560
</data>
 </layer>
 <objectgroup id="5" name="objects">
  <object id="8" type="decorations_medium" gid="770" x="607.333" y="768" width="64" height="64"/>
  <object id="9" type="decorations_medium" gid="772" x="894.667" y="766" width="64" height="64"/>
  <object id="10" type="decorations_medium" gid="771" x="606" y="996" width="64" height="64"/>
  <object id="17" type="tree" gid="788" x="964.5" y="581.5" width="128" height="128"/>
  <object id="18" type="tree" gid="800" x="980.5" y="954.5" width="128" height="128"/>
  <object id="19" type="tree" gid="800" x="294" y="769" width="128" height="128"/>
  <object id="20" type="tree" gid="800" x="256" y="449" width="128" height="128"/>
  <object id="21" type="tree" gid="812" x="489" y="225.5" width="128" height="128"/>
  <object id="22" type="tree" gid="812" x="1190" y="97.5" width="128" height="128"/>
  <object id="23" type="tree" gid="812" x="1384" y="295" width="128" height="128"/>
  <object id="24" type="tree" gid="788" x="1439" y="360" width="128" height="128"/>
  <object id="25" type="tree" gid="788" x="1392" y="433" width="128" height="128"/>
  <object id="26" type="tree" gid="788" x="1446" y="517.5" width="128" height="128"/>
  <object id="27" type="tree" gid="788" x="1396" y="602" width="128" height="128"/>
  <object id="28" type="tree" gid="788" x="1455.5" y="686.5" width="128" height="128"/>
  <object id="29" type="tree" gid="788" x="1409" y="761" width="128" height="128"/>
  <object id="30" type="tree" gid="788" x="1410" y="839" width="128" height="128"/>
  <object id="31" type="tree" gid="788" x="1455.5" y="914.5" width="128" height="128"/>
  <object id="32" type="tree" gid="788" x="1462.5" y="994" width="128" height="128"/>
  <object id="33" type="tree" gid="788" x="1213" y="960.5" width="128" height="128"/>
  <object id="34" type="tree" gid="788" x="803.5" y="572.5" width="128" height="128"/>
  <object id="35" type="tree" gid="788" x="973" y="718.5" width="128" height="128"/>
  <object id="36" type="tree" gid="788" x="574.5" y="576.75" width="128" height="128"/>
  <object id="57" type="small-buildings" gid="813" x="298.667" y="992.667" width="160" height="192"/>
  <object id="58" type="small-buildings" gid="814" x="848" y="851.333" width="160" height="192"/>
  <object id="59" type="small-buildings" gid="815" x="48" y="1022" width="160" height="192"/>
  <object id="67" type="ground_dec_props" gid="683" x="289" y="738.333" width="32" height="32">
   <properties>
    <property name="action" value="collect"/>
    <property name="value" value="9VqaAzUcK"/>
   </properties>
  </object>
  <object id="68" type="ground_dec_props" gid="683" x="639.5" y="735.667" width="32" height="32">
   <properties>
    <property name="action" value="collect"/>
    <property name="value" value="9VqaAzUcK"/>
   </properties>
  </object>
  <object id="69" type="ground_dec_props" gid="680" x="863.667" y="738.5" width="32" height="32">
   <properties>
    <property name="action" value="collect"/>
    <property name="value" value="9VqaAzUcK"/>
   </properties>
  </object>
  <object id="70" type="ground_dec_props" gid="679" x="960.333" y="699" width="32" height="32">
   <properties>
    <property name="action" value="collect"/>
    <property name="value" value="9VqaAzUcK"/>
   </properties>
  </object>
  <object id="71" type="ground_dec_props" gid="679" x="318" y="664.5" width="32" height="32">
   <properties>
    <property name="action" value="collect"/>
    <property name="value" value="9VqaAzUcK"/>
   </properties>
  </object>
  <object id="72" type="ground_dec_props" gid="679" x="224.5" y="565.5" width="32" height="32">
   <properties>
    <property name="action" value="collect"/>
    <property name="value" value="9VqaAzUcK"/>
   </properties>
  </object>
  <object id="73" type="ground_dec_props" gid="680" x="383.5" y="483.5" width="32" height="32">
   <properties>
    <property name="action" value="collect"/>
    <property name="value" value="9VqaAzUcK"/>
   </properties>
  </object>
  <object id="74" type="ground_dec_props" gid="680" x="288.5" y="388" width="32" height="32">
   <properties>
    <property name="action" value="collect"/>
    <property name="value" value="9VqaAzUcK"/>
   </properties>
  </object>
  <object id="75" type="ground_dec_props" gid="681" x="128.5" y="222.5" width="32" height="32">
   <properties>
    <property name="action" value="collect"/>
    <property name="value" value="9VqaAzUcK"/>
   </properties>
  </object>
  <object id="76" type="ground_dec_props" gid="683" x="323" y="131.5" width="32" height="32">
   <properties>
    <property name="action" value="collect"/>
    <property name="value" value="9VqaAzUcK"/>
   </properties>
  </object>
  <object id="77" type="ground_dec_props" gid="682" x="128" y="120.5" width="32" height="32">
   <properties>
    <property name="action" value="collect"/>
    <property name="value" value="9VqaAzUcK"/>
   </properties>
  </object>
  <object id="78" type="ground_dec_props" gid="682" x="64.5" y="120.5" width="32" height="32">
   <properties>
    <property name="action" value="collect"/>
    <property name="value" value="9VqaAzUcK"/>
   </properties>
  </object>
  <object id="79" gid="682" x="32.5" y="346.5" width="32" height="32"/>
 </objectgroup>
 <group id="12" name="npc">
  <objectgroup id="14" name="GUgR50t1x">
   <object id="80" name="spawn" x="1468" y="1488">
    <point/>
   </object>
  </objectgroup>
  <objectgroup id="11" name="QHp67chim">
   <object id="60" name="spawn" x="336" y="1203.33">
    <point/>
   </object>
   <object id="61" name="route" x="336" y="1203">
    <polygon points="-16,13 48,13 80,77 144,109 144,237 48,269 -144,301 -240,237 -240,45 -80,45"/>
   </object>
  </objectgroup>
  <objectgroup id="13" name="MtyJP39W3">
   <object id="65" name="spawn" x="783.273" y="1040.6">
    <point/>
   </object>
  </objectgroup>
 </group>
 <objectgroup id="6" name="locations">
  <object id="1" name="spawn" x="768.5" y="896">
   <properties>
    <property name="id" value="953SBx26R"/>
   </properties>
   <point/>
  </object>
 </objectgroup>
 <layer id="2" name="hills" width="50" height="50">
  <data encoding="csv">
0,0,0,0,0,0,0,0,0,0,0,0,0,0,0,0,0,0,0,0,0,0,0,0,0,0,0,0,0,0,0,0,0,0,0,0,0,0,0,0,0,0,0,0,0,0,0,0,0,0,
0,0,0,0,0,0,0,0,0,0,0,0,0,0,0,0,0,0,0,0,0,0,0,0,0,0,0,0,0,0,0,0,0,0,0,0,0,0,0,0,0,0,0,0,0,0,0,0,0,0,
0,0,0,0,0,0,0,0,0,0,0,0,0,0,0,0,0,0,0,0,0,0,0,0,0,0,0,0,0,0,0,0,0,0,0,0,0,0,0,0,0,0,0,0,0,0,0,0,0,0,
0,0,0,0,0,0,0,0,0,0,0,0,0,0,0,0,0,0,0,0,0,0,0,0,0,0,0,0,0,0,0,0,0,0,0,0,0,0,0,0,0,0,0,0,0,0,0,0,0,0,
0,0,0,0,0,0,0,0,0,0,0,0,0,0,0,0,0,0,0,0,0,0,0,0,0,0,0,0,0,0,0,0,0,0,0,0,0,0,0,0,0,0,0,0,0,0,0,0,0,0,
0,0,0,0,0,0,0,0,0,0,0,0,0,0,0,0,0,0,0,0,0,0,0,0,0,0,0,0,0,0,0,0,0,0,0,0,0,0,0,0,0,0,0,0,0,0,0,0,0,0,
0,0,0,0,0,0,0,0,0,0,0,0,0,0,0,0,0,0,0,0,0,0,0,0,0,0,0,0,0,0,0,0,0,0,0,0,0,0,0,0,0,0,0,0,0,0,0,0,0,0,
0,0,0,0,0,0,0,0,0,0,0,0,0,0,0,0,0,0,0,0,0,0,0,0,0,0,0,0,0,0,0,0,0,0,0,0,0,0,0,0,0,0,0,0,0,0,0,0,0,0,
0,0,0,0,0,0,0,0,0,0,0,0,0,0,0,0,0,0,0,0,0,0,0,0,0,0,0,0,0,0,0,0,0,0,0,0,0,0,0,0,0,0,0,0,0,0,0,0,0,0,
0,0,0,0,0,0,0,0,0,0,0,0,0,0,0,0,0,0,0,0,0,0,0,0,0,0,0,0,0,0,10,11,12,13,14,0,0,0,0,0,0,0,0,0,0,0,0,0,0,0,
0,0,0,0,0,0,0,0,0,0,0,0,0,0,0,0,0,0,0,0,0,0,0,0,0,0,0,0,0,0,35,1628,1565,1496,40,14,0,0,0,0,0,0,0,0,0,0,0,0,0,0,
0,0,0,0,0,0,0,0,0,0,0,0,0,0,0,0,0,0,0,0,0,0,0,0,0,0,0,0,0,0,35,1498,1625,1625,1498,40,14,0,0,0,0,0,0,0,0,0,0,0,0,0,
0,0,0,0,0,0,0,0,0,0,0,0,0,10,11,12,13,11,12,13,136,137,138,14,0,0,0,0,0,10,41,1627,1630,1497,1596,1596,40,14,0,0,0,0,0,0,0,0,0,0,0,0,
0,0,0,0,0,0,0,0,0,0,0,0,0,35,1566,1596,1628,1534,1630,1533,1528,1594,1625,39,0,0,0,0,10,41,1566,1500,1598,1593,1596,1564,1626,40,14,0,0,0,0,0,0,0,0,0,0,0,
0,0,0,0,0,0,0,0,0,0,0,0,0,60,1630,1565,1498,1500,1500,1532,1533,1497,1562,64,0,0,0,10,41,1629,1629,1534,1593,1496,1498,1500,1561,1597,39,0,0,0,0,0,0,0,0,0,0,0,
0,0,0,0,0,0,0,0,0,0,0,0,0,85,1529,1563,1502,1498,1502,1499,1598,1597,65,114,0,0,10,41,1565,1529,1532,1499,1531,1565,1626,1530,1560,1595,64,0,0,0,0,0,0,0,0,0,0,0,
0,0,0,0,0,0,0,0,0,0,0,0,0,35,1626,1565,1528,1624,1501,1565,1630,1565,89,0,0,10,41,1531,1630,1630,1498,1597,1496,1595,1497,1531,1560,1532,89,0,0,0,0,0,0,0,0,0,0,0,
0,0,0,0,0,0,0,0,0,0,0,0,0,60,1561,1497,1499,65,111,112,113,112,114,0,0,110,112,113,112,111,112,111,112,113,66,1560,1566,1562,39,0,0,0,0,0,0,0,0,0,0,0,
0,0,0,0,0,0,0,0,0,0,0,0,0,85,1566,1500,1532,39,0,0,0,0,0,0,0,0,0,0,0,0,0,0,0,0,35,1592,1630,1626,64,0,0,0,0,0,0,0,0,0,0,0,
0,0,0,0,0,0,0,0,0,0,0,0,0,35,1595,1560,1500,64,0,0,0,0,0,0,0,0,0,0,0,0,0,0,0,0,60,1502,1628,1562,89,0,0,0,0,0,0,0,0,0,0,0,
0,0,0,0,0,0,0,0,0,0,0,0,0,60,1566,1533,1529,89,0,0,0,0,0,0,0,0,0,0,0,0,0,0,0,0,85,1529,1499,1530,39,0,0,0,0,0,0,0,0,0,0,0,
0,0,0,0,0,0,0,0,0,0,0,0,0,85,1499,1562,1530,89,0,0,0,0,0,0,0,0,0,0,0,0,0,0,0,0,35,1592,1501,1528,64,0,0,0,0,0,0,0,0,0,0,0,
0,0,0,0,0,0,0,0,0,0,0,0,0,35,1594,1561,1594,39,0,0,0,0,0,0,0,0,0,0,0,0,0,0,0,0,60,1594,1627,1560,89,0,0,0,0,0,0,0,0,0,0,0,
0,0,0,0,0,0,0,0,0,0,0,0,0,60,1560,1627,1562,64,0,0,0,0,0,0,0,0,0,0,0,0,0,0,0,0,85,1625,1498,1499,39,0,0,0,0,0,0,0,0,0,0,0,
0,0,0,0,0,0,0,0,0,0,0,0,0,85,1598,1593,1497,89,0,0,0,0,0,0,0,0,0,0,0,0,0,0,0,0,35,1499,1627,1627,64,0,0,0,0,0,0,0,0,0,0,0,
0,0,0,0,0,0,0,0,0,0,0,0,0,35,1563,1564,1594,39,0,0,0,0,0,0,0,0,0,0,0,0,0,0,0,0,60,1630,1497,1626,89,0,0,0,0,0,0,0,0,0,0,0,
0,0,0,0,0,0,0,0,0,0,0,0,0,60,1530,1564,1597,64,0,0,0,0,0,0,0,0,0,0,0,0,0,0,0,0,110,186,187,188,114,0,0,0,0,0,0,0,0,0,0,0,
0,0,0,0,0,0,0,0,0,0,0,0,0,85,1593,1595,1630,89,0,0,0,0,0,0,0,0,0,0,0,0,0,0,0,0,0,0,0,0,0,0,0,0,0,0,0,0,0,0,0,0,
0,0,0,0,0,0,0,0,0,0,0,0,0,110,111,112,113,114,0,0,0,0,0,0,0,0,0,0,0,0,0,0,0,0,0,0,0,0,0,0,0,0,0,0,0,0,0,0,0,0,
0,0,0,0,0,0,0,0,0,0,0,0,0,0,0,0,0,0,0,0,0,0,0,0,0,0,0,0,0,0,0,0,0,0,10,12,5,0,0,0,0,0,0,0,0,0,0,0,0,0,
0,0,0,0,0,0,0,0,0,0,0,0,0,0,0,0,0,0,0,0,0,0,0,0,0,0,0,0,0,0,0,0,0,0,60,1499,39,0,0,0,0,0,0,0,0,0,0,0,0,0,
0,0,0,0,0,0,0,0,0,0,0,0,0,0,10,11,12,14,0,0,0,0,0,0,0,0,0,0,0,0,0,0,0,0,35,1626,64,0,0,0,0,0,0,0,0,0,0,0,0,0,
0,0,0,0,0,0,0,0,0,0,0,0,0,0,60,1502,1560,55,0,0,0,0,0,0,0,0,0,0,0,0,0,0,0,0,60,1561,39,0,0,0,0,0,0,0,0,0,0,0,0,0,
0,0,0,0,0,0,0,0,0,0,0,0,0,0,85,1594,1598,80,0,0,0,0,0,0,0,0,0,0,0,0,0,0,0,0,85,1565,64,0,0,0,0,0,0,0,0,0,0,0,0,0,
0,0,0,0,0,0,0,0,0,0,0,0,0,0,85,1561,1532,40,11,11,12,13,11,12,13,11,12,13,11,12,13,11,12,13,41,1533,89,0,0,0,0,0,0,0,0,0,0,0,0,0,
0,0,0,0,0,0,0,0,0,0,0,0,0,0,35,1628,1624,1598,1530,1624,1624,1532,1625,1597,1565,1501,1628,1532,1533,1596,1560,1531,1596,1594,1561,1497,139,0,0,0,0,0,0,0,0,0,0,0,0,0,
0,0,0,0,0,0,0,0,0,0,0,0,0,0,60,1630,1534,1530,1625,1561,1592,1592,1598,1501,1625,1565,1498,1598,1593,1502,1563,1501,1594,1496,1496,1563,164,0,0,0,0,0,0,0,0,0,0,0,0,0,
0,0,0,0,0,0,0,0,0,0,0,0,0,0,85,1496,1498,1502,1597,1532,1500,1596,1598,1530,1530,1629,1597,1500,1497,1596,1560,1598,1529,1501,1624,1624,189,0,0,0,0,0,0,0,0,0,0,0,0,0,
0,0,0,0,0,0,0,0,0,0,0,0,0,0,110,111,112,113,111,112,113,111,112,113,111,112,113,111,112,113,111,112,113,111,112,113,114,0,0,0,0,0,0,0,0,0,0,0,0,0,
0,0,0,0,0,0,0,0,0,0,0,0,0,0,0,0,0,0,0,0,0,0,0,0,0,0,0,0,0,0,0,0,0,0,0,0,0,0,0,0,0,0,0,0,0,0,0,0,0,0,
0,0,0,0,0,0,0,0,0,0,0,0,0,0,0,0,0,0,0,0,0,0,0,0,0,0,0,0,0,0,0,0,0,0,0,0,0,0,0,0,0,0,0,0,0,0,0,0,0,0,
0,0,0,0,0,0,0,0,0,0,0,0,0,0,0,0,0,0,0,0,0,0,0,0,0,0,0,0,0,0,0,0,0,0,0,0,0,0,0,0,0,0,0,0,0,0,0,0,0,0,
0,0,0,0,0,0,0,0,0,0,0,0,0,0,0,0,0,0,0,0,0,0,0,0,0,0,0,0,0,0,0,0,0,0,0,0,0,0,0,0,0,0,0,0,0,0,0,0,0,0,
0,0,0,0,0,0,0,0,0,0,0,0,0,0,0,0,0,0,0,0,0,0,0,0,0,0,0,0,0,0,0,0,0,0,0,0,0,0,0,0,0,0,0,0,0,0,0,0,0,0,
0,0,0,0,0,0,0,0,0,0,0,0,0,0,0,0,0,0,0,0,0,0,0,0,0,0,0,0,0,0,0,0,0,0,0,0,0,0,0,0,0,0,0,0,0,0,0,0,0,0,
0,0,0,0,0,0,0,0,0,0,0,0,0,0,0,0,0,0,0,0,0,0,0,0,0,0,0,0,0,0,0,0,0,0,0,0,0,0,0,0,0,0,0,0,0,0,0,0,0,0,
0,0,0,0,0,0,0,0,0,0,0,0,0,0,0,0,0,0,0,0,0,0,0,0,0,0,0,0,0,0,0,0,0,0,0,0,0,0,0,0,0,0,0,0,0,0,0,0,0,0,
0,0,0,0,0,0,0,0,0,0,0,0,0,0,0,0,0,0,0,0,0,0,0,0,0,0,0,0,0,0,0,0,0,0,0,0,0,0,0,0,0,0,0,0,0,0,0,0,0,0,
0,0,0,0,0,0,0,0,0,0,0,0,0,0,0,0,0,0,0,0,0,0,0,0,0,0,0,0,0,0,0,0,0,0,0,0,0,0,0,0,0,0,0,0,0,0,0,0,0,0,
0,0,0,0,0,0,0,0,0,0,0,0,0,0,0,0,0,0,0,0,0,0,0,0,0,0,0,0,0,0,0,0,0,0,0,0,0,0,0,0,0,0,0,0,0,0,0,0,0,0
</data>
 </layer>
 <layer id="3" name="collision" width="50" height="50" visible="0" opacity="0.5">
  <data encoding="csv">
401,401,401,401,401,401,401,401,401,401,401,401,401,401,401,401,401,401,401,401,401,401,401,401,401,401,401,401,401,401,401,401,401,401,401,401,401,401,401,401,401,401,401,401,401,401,401,401,401,401,
401,0,0,0,0,0,0,0,0,0,0,0,0,0,0,0,0,0,0,0,0,0,0,0,0,0,0,0,0,0,0,0,0,0,0,0,0,0,0,0,0,0,0,0,0,0,0,0,0,401,
401,0,0,0,0,0,0,0,0,0,0,0,0,0,0,0,0,0,0,0,0,0,0,0,0,0,0,0,0,0,0,0,0,0,0,0,0,0,0,0,0,0,0,0,0,0,0,0,0,401,
401,0,0,0,0,0,0,0,0,0,0,0,0,0,0,0,0,0,0,0,0,0,0,0,0,0,0,0,0,0,0,0,0,0,0,0,0,0,0,0,0,0,0,0,0,0,0,0,0,401,
401,0,0,0,0,0,0,0,0,0,0,0,0,0,0,0,0,0,0,0,0,0,0,0,0,0,0,0,0,0,0,0,0,0,0,0,0,0,0,0,0,0,0,0,0,0,0,0,0,401,
401,0,0,0,0,0,0,0,0,0,0,0,0,0,0,0,0,0,0,0,0,0,0,0,0,0,0,0,0,0,0,0,0,0,0,0,0,0,0,0,0,0,0,0,0,0,0,0,0,401,
401,0,0,0,0,0,0,0,0,0,0,0,0,0,0,0,0,0,0,0,0,0,0,0,0,0,0,0,0,0,0,0,0,0,0,0,0,0,0,0,0,0,0,0,0,0,0,0,0,401,
401,0,0,0,0,0,0,0,0,0,0,0,0,0,0,0,0,0,0,0,0,0,0,0,0,0,0,0,0,0,0,0,0,0,0,0,0,0,0,0,0,0,0,0,0,0,0,0,0,401,
401,0,0,0,0,0,0,0,0,0,0,0,0,0,0,0,0,0,0,0,0,0,0,0,0,0,0,0,0,0,0,0,0,0,0,0,0,0,0,0,0,0,0,0,0,0,0,0,0,401,
401,0,0,0,0,0,0,0,0,0,0,0,0,0,0,0,0,0,0,0,0,0,0,0,0,0,0,0,0,0,405,409,409,409,403,0,0,0,0,0,0,0,0,0,0,0,0,0,0,401,
401,0,0,0,0,0,0,0,0,0,0,0,0,0,0,0,0,0,0,0,0,0,0,0,0,0,0,0,0,0,401,0,0,0,402,403,0,0,0,0,0,0,0,0,0,0,0,0,0,401,
401,0,0,0,0,0,0,0,0,0,0,0,0,0,0,0,0,0,0,0,0,0,0,0,0,0,0,0,0,0,401,0,0,0,0,402,403,0,0,0,0,0,0,0,0,0,0,0,0,401,
401,0,0,0,0,0,0,0,0,0,0,0,0,405,409,409,409,409,409,409,0,0,408,403,0,0,0,0,0,405,404,0,0,0,0,0,402,403,0,0,0,0,0,0,0,0,0,0,0,401,
401,0,0,0,0,0,0,0,0,0,0,0,0,401,0,0,0,0,0,0,0,0,0,401,0,0,0,0,405,404,0,0,0,0,0,0,0,402,403,0,0,0,0,0,0,0,0,0,0,401,
401,0,0,0,0,0,0,0,0,0,0,0,0,401,0,0,0,0,0,0,0,0,0,401,0,0,0,405,404,0,0,0,0,0,0,0,0,0,401,0,0,0,0,0,0,0,0,0,0,401,
401,0,0,0,0,0,0,0,0,0,0,0,0,401,0,0,0,0,0,0,0,0,405,404,0,0,405,404,0,0,0,0,0,0,0,0,0,0,401,0,0,0,0,0,0,0,0,0,0,401,
401,0,0,0,0,0,0,0,0,0,0,0,0,401,0,0,0,0,0,0,0,0,401,0,0,405,404,0,0,0,0,0,0,0,0,0,0,0,401,0,0,0,0,0,0,0,0,0,0,401,
401,0,0,0,0,0,0,0,0,0,0,0,0,401,0,0,0,405,401,401,401,401,404,0,0,402,401,401,401,401,401,401,401,401,403,0,0,0,401,0,0,0,0,0,0,0,0,0,0,401,
401,0,0,0,0,0,0,0,0,0,0,0,0,401,0,0,0,401,0,0,0,0,0,0,0,0,0,0,0,0,0,0,0,0,401,0,0,0,401,0,0,0,0,0,0,0,0,0,0,401,
401,0,0,0,0,0,0,0,0,0,0,0,0,401,0,0,0,401,0,0,0,0,0,0,0,0,0,0,0,0,0,0,0,0,401,0,0,0,401,0,0,0,0,0,0,0,0,0,0,401,
401,0,0,0,0,0,0,0,0,0,0,0,0,401,0,0,0,401,0,0,0,0,0,0,0,0,0,0,0,0,0,0,0,0,401,0,0,0,401,0,0,0,0,0,0,0,0,0,0,401,
401,0,0,0,0,0,0,0,0,0,0,0,0,401,0,0,0,401,0,0,0,0,0,0,0,0,0,0,0,0,0,0,0,0,401,0,0,0,401,0,0,0,0,0,0,0,0,0,0,401,
401,0,0,0,0,0,0,0,0,0,0,0,0,401,0,0,0,401,0,0,0,0,0,0,0,0,0,0,0,0,0,0,0,0,401,0,0,0,401,0,0,0,0,0,0,0,0,0,0,401,
401,0,0,0,0,0,0,0,0,0,0,0,0,401,0,0,0,401,0,0,0,0,0,0,0,0,0,0,0,0,0,0,0,0,401,0,0,0,401,0,0,0,0,0,0,0,0,0,0,401,
401,0,0,0,0,0,0,0,0,0,0,0,0,401,0,0,0,401,0,0,0,0,0,0,0,0,0,0,0,0,0,0,0,0,401,0,0,0,401,0,0,0,0,0,0,0,0,0,0,401,
401,0,0,0,0,0,0,0,0,0,0,0,0,401,0,0,0,401,0,0,0,0,0,0,0,0,0,0,0,0,0,0,0,0,401,0,0,0,401,0,0,0,0,0,0,0,0,0,0,401,
401,0,0,0,0,0,0,0,0,0,0,0,0,401,0,0,0,401,0,0,0,0,0,0,0,0,0,0,0,0,0,0,0,0,402,406,0,408,404,0,0,0,0,0,0,0,0,0,0,401,
401,0,0,0,0,0,0,0,0,0,0,0,0,401,0,0,0,401,0,0,0,0,0,0,0,0,0,0,0,0,0,0,0,0,0,0,0,0,0,0,0,0,0,0,0,0,0,0,0,401,
401,0,0,0,0,0,0,0,0,0,0,0,0,402,401,401,401,404,0,0,0,0,0,0,0,0,0,0,0,0,0,0,0,0,0,0,0,0,0,0,0,0,0,0,0,0,0,0,0,401,
401,0,0,0,0,0,0,0,0,0,0,0,0,0,0,0,0,0,0,0,0,0,0,0,0,0,0,0,0,0,0,0,0,0,405,409,403,0,0,0,0,0,0,0,0,0,0,0,0,401,
401,0,0,0,0,0,0,0,0,0,0,0,0,0,0,0,0,0,0,0,0,0,0,0,0,0,0,0,0,0,0,0,0,0,401,0,401,0,0,0,0,0,0,0,0,0,0,0,0,401,
401,0,0,0,0,0,0,0,0,0,0,0,0,0,405,409,409,403,0,0,0,0,0,0,0,0,0,0,0,0,0,0,0,0,401,0,401,0,0,0,0,0,0,0,0,0,0,0,0,401,
401,0,0,0,0,0,0,0,0,0,0,0,0,0,401,0,0,401,0,0,0,0,0,0,0,0,0,0,0,0,0,0,0,0,401,0,401,0,0,0,0,0,0,0,0,0,0,0,0,401,
401,0,0,0,0,0,0,0,0,0,0,0,0,0,401,0,0,401,0,0,0,0,0,0,0,0,0,0,0,0,0,0,0,0,401,0,401,0,0,0,0,0,0,0,0,0,0,0,0,401,
401,0,0,0,0,0,0,0,0,0,0,0,0,0,401,0,0,409,409,409,409,409,409,409,409,409,409,409,409,409,409,409,409,409,409,0,401,0,0,0,0,0,0,0,0,0,0,0,0,401,
401,0,0,0,0,0,0,0,0,0,0,0,0,0,401,0,0,0,0,0,0,0,0,0,0,0,0,0,0,0,0,0,0,0,0,0,409,0,0,0,0,0,0,0,0,0,0,0,0,401,
401,0,0,0,0,0,0,0,0,0,0,0,0,0,401,0,0,0,0,0,0,0,0,0,0,0,0,0,0,0,0,0,0,0,0,0,0,0,0,0,0,0,0,0,0,0,0,0,0,401,
401,0,0,0,0,0,0,0,0,0,0,0,0,0,401,0,0,0,0,0,0,0,0,0,0,0,0,0,0,0,0,0,0,0,0,0,407,0,0,0,0,0,0,0,0,0,0,0,0,401,
401,0,0,0,0,0,0,0,0,0,0,0,0,0,402,401,401,401,401,401,401,401,401,401,401,401,401,401,401,401,401,401,401,401,401,401,404,0,0,0,0,0,0,0,0,0,0,0,0,401,
401,0,0,0,0,0,0,0,0,0,0,0,0,0,0,0,0,0,0,0,0,0,0,0,0,0,0,0,0,0,0,0,0,0,0,0,0,0,0,0,0,0,0,0,0,0,0,0,0,401,
401,0,0,0,0,0,0,0,0,0,0,0,0,0,0,0,0,0,0,0,0,0,0,0,0,0,0,0,0,0,0,0,0,0,0,0,0,0,0,0,0,0,0,0,0,0,0,0,0,401,
401,0,0,0,0,0,0,0,0,0,0,0,0,0,0,0,0,0,0,0,0,0,0,0,0,0,0,0,0,0,0,0,0,0,0,0,0,0,0,0,0,0,0,0,0,0,0,0,0,401,
401,0,0,0,0,0,0,0,0,0,0,0,0,0,0,0,0,0,0,0,0,0,0,0,0,0,0,0,0,0,0,0,0,0,0,0,0,0,0,0,0,0,0,0,0,0,0,0,0,401,
401,0,0,0,0,0,0,0,0,0,0,0,0,0,0,0,0,0,0,0,0,0,0,0,0,0,0,0,0,0,0,0,0,0,0,0,0,0,0,0,0,0,0,0,0,0,0,0,0,401,
401,0,0,0,0,0,0,0,0,0,0,0,0,0,0,0,0,0,0,0,0,0,0,0,0,0,0,0,0,0,0,0,0,0,0,0,0,0,0,0,0,0,0,0,0,0,0,0,0,401,
401,0,0,0,0,0,0,0,0,0,0,0,0,0,0,0,0,0,0,0,0,0,0,0,0,0,0,0,0,0,0,0,0,0,0,0,0,0,0,0,0,0,0,0,0,0,0,0,0,401,
401,0,0,0,0,0,0,0,0,0,0,0,0,0,0,0,0,0,0,0,0,0,0,0,0,0,0,0,0,0,0,0,0,0,0,0,0,0,0,0,0,0,0,0,0,0,0,0,0,401,
401,0,0,0,0,0,0,0,0,0,0,0,0,0,0,0,0,0,0,0,0,0,0,0,0,0,0,0,0,0,0,0,0,0,0,0,0,0,0,0,0,0,0,0,0,0,0,0,0,401,
401,0,0,0,0,0,0,0,0,0,0,0,0,0,0,0,0,0,0,0,0,0,0,0,0,0,0,0,0,0,0,0,0,0,0,0,0,0,0,0,0,0,0,0,0,0,0,0,0,401,
401,401,401,401,401,401,401,401,401,401,401,401,401,401,401,401,401,401,401,401,401,401,401,401,401,401,401,401,401,401,401,401,401,401,401,401,401,401,401,401,401,401,401,401,401,401,401,401,401,401
</data>
 </layer>
</map>
