<?xml version="1.0" encoding="UTF-8"?>
<map version="1.10" tiledversion="1.11.1-99-gec89c545" orientation="orthogonal" renderorder="left-up" width="18" height="22" tilewidth="32" tileheight="32" infinite="0" nextlayerid="10" nextobjectid="4">
 <editorsettings>
  <export target="dummy-house.json" format="json"/>
 </editorsettings>
 <tileset firstgid="1" name="wooden_walls" tilewidth="32" tileheight="32" tilecount="286" columns="22">
  <image source="../../../client/assets/tilesets/fantasy-lands/interrior/Walls/FL_Houses_int_WallsD.png" width="704" height="416"/>
 </tileset>
 <tileset firstgid="287" name="floors" tilewidth="32" tileheight="32" tilecount="896" columns="28">
  <image source="../../../client/assets/tilesets/fantasy-lands/interrior/Floors/FL_Houses_int_Floors.png" width="896" height="1024"/>
 </tileset>
 <tileset firstgid="1183" name="internals" tilewidth="32" tileheight="32" tilecount="690" columns="30">
  <image source="../../../client/assets/tilesets/fantasy-lands/interrior/FL_Houses_int_sidesOfTheHouses.png" width="960" height="736"/>
 </tileset>
 <tileset firstgid="1873" name="elements" tilewidth="32" tileheight="32" tilecount="520" columns="26">
  <image source="../../../client/assets/tilesets/fantasy-lands/interrior/FL_Houses_int_building elements.png" width="832" height="640"/>
 </tileset>
 <tileset firstgid="2393" name="fire_place" tilewidth="32" tileheight="32" tilecount="380" columns="20">
  <image source="../../../client/assets/tilesets/fantasy-lands/interrior/Furnitures/FL_Houses_int_FurnituresC.png" width="640" height="608"/>
 </tileset>
 <tileset firstgid="2773" name="beds_and_drobes" tilewidth="32" tileheight="32" tilecount="272" columns="17">
  <image source="../../../client/assets/tilesets/fantasy-lands/interrior/Furnitures/FL_Houses_int_FurnituresA.png" width="544" height="512"/>
 </tileset>
 <tileset firstgid="3045" name="kitchen" tilewidth="32" tileheight="32" tilecount="1050" columns="35">
  <image source="../../../client/assets/tilesets/fantasy-lands/interrior/Furnitures/FL_Houses_int_FurnituresB.png" width="1120" height="960"/>
 </tileset>
 <tileset firstgid="4095" name="dummy-tile" tilewidth="32" tileheight="32" tilecount="13" columns="13">
  <properties>
   <property name="required" type="bool" value="false"/>
  </properties>
  <image source="../../../client/assets/tilesets/dummy-tile.png" width="416" height="32"/>
  <tile id="0">
   <properties>
    <property name="collider" type="int" value="0"/>
   </properties>
  </tile>
  <tile id="1">
   <properties>
    <property name="collider" type="int" value="1"/>
   </properties>
  </tile>
  <tile id="2">
   <properties>
    <property name="collider" type="int" value="2"/>
   </properties>
  </tile>
  <tile id="3">
   <properties>
    <property name="collider" type="int" value="3"/>
   </properties>
  </tile>
  <tile id="4">
   <properties>
    <property name="collider" type="int" value="4"/>
   </properties>
  </tile>
  <tile id="5">
   <properties>
    <property name="collider" type="int" value="5"/>
   </properties>
  </tile>
  <tile id="6">
   <properties>
    <property name="collider" type="int" value="6"/>
   </properties>
  </tile>
  <tile id="7">
   <properties>
    <property name="collider" type="int" value="7"/>
   </properties>
  </tile>
  <tile id="8">
   <properties>
    <property name="collider" type="int" value="8"/>
   </properties>
  </tile>
  <tile id="9">
   <properties>
    <property name="collider" type="int" value="9"/>
   </properties>
  </tile>
  <tile id="10">
   <properties>
    <property name="collider" type="int" value="10"/>
   </properties>
  </tile>
  <tile id="11">
   <properties>
    <property name="collider" type="int" value="11"/>
   </properties>
  </tile>
  <tile id="12">
   <properties>
    <property name="collider" type="int" value="0"/>
   </properties>
  </tile>
 </tileset>
 <layer id="1" name="ground" width="18" height="22" opacity="0.9">
  <data encoding="csv">
0,0,0,0,0,0,0,0,0,0,0,0,0,0,0,0,0,0,
0,0,0,0,0,0,0,0,0,0,0,0,0,0,0,0,0,0,
0,0,0,0,0,0,0,0,0,0,0,0,0,0,0,0,0,0,
0,0,0,0,0,0,0,0,0,0,0,0,0,0,0,0,0,0,
0,0,1208,134,134,134,134,134,134,134,134,134,134,134,134,1212,0,0,
0,0,1238,156,156,156,156,156,156,156,156,156,156,156,156,1272,0,0,
0,0,1268,511,512,512,512,512,512,512,512,512,512,513,514,1242,0,0,
0,0,1238,539,540,541,540,541,540,541,540,541,540,541,542,1272,0,0,
0,0,1268,567,568,569,568,569,568,569,568,569,568,569,570,1242,0,0,
0,0,1238,567,540,541,540,541,540,541,540,541,540,541,542,1272,0,0,
0,0,1268,539,568,569,568,569,568,569,568,569,568,569,570,1242,0,0,
0,0,1238,567,540,541,540,541,540,541,540,541,540,541,542,1272,0,0,
0,0,1268,539,540,541,568,569,568,569,568,569,568,569,570,1242,0,0,
0,0,1238,539,568,569,540,541,540,541,540,541,540,541,542,1272,0,0,
0,0,1268,567,540,541,568,569,568,569,568,569,568,569,570,1242,0,0,
0,0,1238,539,540,541,540,541,541,540,541,540,540,541,542,1272,0,0,
0,0,1268,567,568,569,568,569,540,541,569,568,568,569,570,1242,0,0,
0,0,1238,539,540,541,541,540,540,541,540,541,540,541,542,1272,0,0,
0,0,1358,567,568,569,569,568,568,569,568,569,568,569,570,1362,0,0,
0,0,1388,595,596,597,596,597,596,597,596,597,596,597,598,1392,0,0,
0,0,1418,1419,1420,1421,1419,1420,1421,1419,1420,1421,1419,1420,1421,1422,0,0,
0,0,0,0,0,0,0,0,0,0,0,0,0,0,0,0,0,0
</data>
 </layer>
 <layer id="3" name="floor" width="18" height="22">
  <data encoding="csv">
0,0,0,0,0,0,0,0,0,0,0,0,0,0,0,0,0,0,
0,0,0,0,0,0,0,0,0,0,0,0,0,0,0,0,0,0,
0,0,0,0,0,0,0,0,0,0,0,0,0,0,0,0,0,0,
0,0,0,0,0,0,0,0,0,0,0,0,0,0,0,0,0,0,
0,0,0,0,0,0,0,0,0,0,0,0,0,0,0,0,0,0,
0,0,0,0,0,0,0,0,0,0,0,0,0,0,0,0,0,0,
0,0,0,0,0,0,0,0,0,0,0,0,0,0,0,0,0,0,
0,0,0,0,0,0,0,0,0,0,0,0,0,0,0,0,0,0,
0,0,0,0,0,0,0,0,0,0,0,0,0,0,0,0,0,0,
0,0,0,0,0,0,0,0,0,0,0,0,0,0,0,0,0,0,
0,0,0,0,0,0,0,0,0,0,0,0,0,0,0,0,0,0,
0,0,0,0,0,0,0,0,0,0,0,0,0,0,0,0,0,0,
0,0,0,0,0,0,0,0,0,0,0,0,0,0,0,0,0,0,
0,0,0,0,0,0,0,0,0,0,0,0,0,0,0,0,0,0,
0,0,0,0,0,0,0,0,0,0,0,0,0,0,0,0,0,0,
0,0,0,0,0,0,0,0,0,0,0,0,0,0,0,0,0,0,
0,0,0,0,0,0,0,0,0,0,0,0,0,0,0,0,0,0,
0,0,0,0,0,0,0,0,931,932,933,0,0,0,0,0,0,0,
0,0,0,0,0,0,0,0,959,960,961,0,0,0,0,0,0,0,
0,0,0,0,0,0,0,0,987,988,989,0,0,0,0,0,0,0,
0,0,0,0,0,0,0,0,0,0,0,0,0,0,0,0,0,0,
0,0,0,0,0,0,0,0,0,0,0,0,0,0,0,0,0,0
</data>
 </layer>
 <layer id="5" name="walls" width="18" height="22">
  <data encoding="csv">
0,0,0,0,0,0,0,0,0,0,0,0,0,0,0,0,0,0,
0,0,0,0,0,0,0,0,0,0,0,0,0,0,0,0,0,0,
0,0,0,0,0,0,156,0,0,0,0,156,0,0,0,0,0,0,
0,0,0,0,156,0,0,0,0,0,0,0,0,156,0,0,0,0,
0,0,0,0,1880,1881,0,0,0,0,1880,1881,2475,2476,0,0,0,0,
0,0,0,0,1906,1907,0,0,0,0,1906,1907,2495,2496,0,0,0,0,
0,0,0,0,0,0,0,0,0,0,0,0,2515,2516,0,0,0,0,
0,0,0,2491,0,0,0,0,0,0,0,0,0,0,0,0,0,0,
0,0,0,2511,0,0,0,0,0,0,0,0,0,0,0,0,0,0,
0,0,0,0,0,0,0,0,0,0,0,0,0,0,0,0,0,0,
0,0,0,0,0,0,0,0,0,0,0,0,0,0,0,0,0,0,
0,0,0,133,135,2186,133,1210,133,134,262,0,0,260,250,0,0,0,
0,0,0,155,157,2212,155,1270,155,156,284,0,0,285,272,0,0,0,
0,0,0,0,0,0,0,1270,0,0,0,0,0,0,0,0,0,0,
0,0,0,0,0,0,0,1270,0,0,0,0,0,0,0,0,0,0,
0,0,0,0,0,0,0,1270,0,0,0,0,0,0,0,0,0,0,
0,0,0,0,0,0,0,1270,0,0,0,0,0,0,0,0,0,0,
0,0,0,0,0,0,0,1270,0,0,0,0,0,0,0,0,0,0,
0,0,0,1209,1209,1209,1209,1360,1359,2289,1361,1209,1209,1209,1209,0,0,0,
0,0,0,1239,1239,1239,1239,1390,1389,2315,1391,1241,1241,1241,1241,0,0,0,
0,0,0,0,0,0,0,0,0,0,0,0,0,0,0,0,0,0,
0,0,0,0,0,0,0,0,0,0,0,0,0,0,0,0,0,0
</data>
 </layer>
 <layer id="6" name="interrior" width="18" height="22">
  <data encoding="csv">
0,0,0,0,0,0,0,0,0,0,0,0,0,0,0,0,0,0,
0,0,0,0,0,0,0,0,0,0,0,0,0,0,0,0,0,0,
0,0,0,0,0,0,0,0,0,0,0,0,0,0,0,0,0,0,
0,0,0,0,0,0,0,0,0,0,0,0,0,0,0,0,0,0,
0,0,0,0,0,0,3266,3267,3264,3265,0,0,0,0,0,0,0,0,
0,0,0,0,0,0,3301,3302,3299,3300,0,0,0,0,0,0,0,0,
0,0,0,0,0,0,3336,3337,3334,3335,0,0,0,0,0,0,0,0,
0,0,0,0,0,0,0,0,0,0,3258,3397,3398,3258,0,0,0,0,
0,0,0,0,0,0,0,0,0,0,3258,3432,3433,3258,0,0,0,0,
0,0,0,0,0,0,0,0,0,0,0,3258,3258,0,0,0,0,0,
0,0,0,0,0,0,0,0,0,0,0,0,0,0,0,0,0,0,
0,0,0,0,0,0,2777,0,0,0,0,0,0,0,0,0,0,0,
0,0,0,2865,2866,0,2794,0,0,0,0,0,0,0,0,0,0,0,
0,0,0,2882,2883,0,2811,0,0,0,0,0,0,0,0,0,0,0,
0,0,0,2899,2900,0,0,0,0,0,0,0,0,0,0,0,0,0,
0,0,0,0,0,0,0,0,0,0,0,0,0,0,0,0,0,0,
0,0,0,2833,2834,0,2820,0,0,0,0,0,0,0,0,0,0,0,
0,0,0,2850,2851,0,2837,0,0,0,0,0,0,0,0,0,0,0,
0,0,0,2829,2830,0,2820,0,0,0,0,0,0,0,0,0,0,0,
0,0,0,2846,2847,0,2837,0,0,0,0,0,0,0,0,0,0,0,
0,0,0,0,0,0,0,0,0,0,0,0,0,0,0,0,0,0,
0,0,0,0,0,0,0,0,0,0,0,0,0,0,0,0,0,0
</data>
 </layer>
 <layer id="4" name="roof" width="18" height="22">
  <data encoding="csv">
0,0,0,0,0,0,0,0,1703,1704,0,0,0,0,0,0,0,0,
0,0,0,0,0,0,1731,1732,1733,1734,1735,1736,0,0,0,0,0,0,
0,0,0,0,1731,1732,1761,156,156,156,156,1766,1735,1736,0,0,0,0,
0,1730,1731,1732,1761,156,156,156,156,156,156,156,156,1766,1735,1736,1737,0,
1759,1760,1761,1762,1597,0,0,0,0,0,0,0,0,0,1765,1766,1767,1768,
0,0,0,0,0,0,0,0,0,0,0,0,0,0,0,0,0,0,
0,0,0,0,0,0,0,0,0,0,0,0,0,0,0,0,0,0,
0,0,0,0,0,0,0,0,0,0,0,0,0,0,0,0,0,0,
0,0,0,0,0,0,0,0,0,0,0,0,0,0,0,0,0,0,
0,0,0,0,0,0,0,0,0,0,0,0,0,0,0,0,0,0,
0,0,0,0,0,0,0,0,0,0,0,0,0,0,0,0,0,0,
0,0,0,0,0,0,0,0,0,0,0,0,0,0,0,0,0,0,
0,0,0,0,0,0,0,0,0,0,0,0,0,0,0,0,0,0,
0,0,0,0,0,0,0,0,0,0,0,0,0,0,0,0,0,0,
0,0,0,0,0,1790,1791,0,0,0,0,1796,1797,0,0,0,0,0,
0,0,0,1790,1791,0,1791,1792,1793,1794,1795,1796,1797,1796,1797,0,0,0,
0,0,0,1790,1791,1792,1821,1822,0,0,1825,1826,1795,1796,1797,0,0,0,
0,1790,1791,1820,1821,1822,0,0,0,0,1855,1856,1825,1826,1795,1796,1797,0,
1819,1820,1821,1822,0,0,0,0,0,0,0,0,1855,1856,1825,1826,1827,1828,
1849,1850,1851,1852,0,0,0,0,0,0,0,0,0,0,1855,1856,1857,1858,
0,0,0,0,0,0,0,0,0,0,0,0,0,0,0,0,0,0,
0,0,0,0,0,0,0,0,0,0,0,0,0,0,0,0,0,0
</data>
 </layer>
 <objectgroup id="8" name="triggers">
  <object id="1" type="change-scene" x="280" y="625.5" width="48.5" height="13.5">
   <properties>
    <property name="scene" value="dummy"/>
   </properties>
  </object>
 </objectgroup>
 <objectgroup id="9" name="locations">
  <object id="3" type="spawn" x="305" y="564">
   <point/>
  </object>
 </objectgroup>
 <layer id="7" name="collision" width="18" height="22" visible="0" opacity="0.44">
  <data encoding="csv">
0,0,0,0,0,0,0,0,0,0,0,0,0,0,0,0,0,0,
0,0,0,0,0,0,0,0,0,0,0,0,0,0,0,0,0,0,
0,0,0,0,0,0,0,0,0,0,0,0,0,0,0,0,0,0,
0,0,0,0,0,0,0,0,0,0,0,0,0,0,0,0,0,0,
0,0,0,0,0,0,0,0,0,0,0,0,0,0,0,0,0,0,
0,0,4095,4101,4101,4101,4101,4101,4101,4101,4101,4101,4101,4101,4101,4095,0,0,
0,0,4095,0,0,0,4103,4103,4103,4103,0,0,4102,4100,0,4095,0,0,
0,0,4095,0,0,0,0,0,0,0,4095,4101,4101,4095,0,4095,0,0,
0,0,4095,4095,0,0,0,0,0,0,4095,4103,4103,4095,0,4095,0,0,
0,0,4095,0,0,0,0,0,0,0,0,4095,4095,0,0,4095,0,0,
0,0,4095,0,0,0,0,0,0,0,0,0,0,0,0,4095,0,0,
0,0,4095,0,0,0,0,4095,0,0,0,0,0,0,0,4095,0,0,
0,0,4095,4101,4101,0,4101,4095,4101,4101,4107,0,0,4101,4101,4095,0,0,
0,0,4095,4101,4099,0,4103,4095,0,0,0,0,0,0,0,4095,0,0,
0,0,4095,0,0,0,0,4095,0,0,0,0,0,0,0,4095,0,0,
0,0,4095,0,0,0,0,4095,0,0,0,0,0,0,0,4095,0,0,
0,0,4095,4101,4107,0,0,4095,0,0,0,0,0,0,0,4095,0,0,
0,0,4095,4103,4104,0,4103,4095,0,0,0,0,0,0,0,4095,0,0,
0,0,4095,4101,4107,0,0,4095,0,0,0,0,0,0,0,4095,0,0,
0,0,4095,4103,4104,0,4103,4095,0,0,0,0,0,0,0,4095,0,0,
0,0,4095,4095,4095,4095,4095,4095,4095,4095,4095,4095,4095,4095,4095,4095,0,0,
0,0,0,0,0,0,0,0,0,0,0,0,0,0,0,0,0,0
</data>
 </layer>
</map>
