<?xml version="1.0" encoding="UTF-8"?>
<map version="1.10" tiledversion="1.11.1-99-gec89c545" orientation="orthogonal" renderorder="right-down" width="5" height="5" tilewidth="32" tileheight="32" infinite="1" nextlayerid="7" nextobjectid="8">
 <editorsettings>
  <export target="zavrazye.json" format="json"/>
 </editorsettings>
 <tileset firstgid="1" name="bridges_and_fences" tilewidth="32" tileheight="32" tilecount="616" columns="28">
  <image source="../../../client/assets/tilesets/fantasy-lands/bridges_and_fences.png" width="896" height="704"/>
 </tileset>
 <tileset firstgid="617" source="../tilesets/ground.json"/>
 <tileset firstgid="1673" source="../tilesets/hills.json"/>
 <tileset firstgid="2073" source="../tilesets/water_env.json"/>
 <tileset firstgid="2311" source="../tilesets/houses.json"/>
 <tileset firstgid="2314" source="../tilesets/decorations.json"/>
 <tileset firstgid="2320" source="../tilesets/dummy-tile.json"/>
 <tileset firstgid="2333" source="../tilesets/tree.json"/>
 <layer id="4" name="water" width="5" height="5">
  <data encoding="csv">
   <chunk x="16" y="-48" width="16" height="16">
0,0,0,0,0,0,0,0,0,0,0,0,0,0,0,0,
0,0,0,0,0,0,0,0,0,0,0,0,0,0,0,0,
0,0,0,0,0,0,0,0,0,0,0,0,0,0,0,0,
0,0,0,0,0,0,0,0,0,0,0,0,0,0,0,0,
0,0,0,0,0,0,0,0,0,0,0,0,0,0,0,2294,
0,0,0,0,0,0,0,0,0,0,0,0,0,0,2294,2294,
0,0,0,0,0,0,0,0,0,0,0,0,0,2294,2294,2294,
0,0,0,0,0,0,0,0,0,0,0,0,2294,2294,2294,2294,
0,0,0,0,0,0,0,0,0,0,2294,2294,2294,2294,2294,2294,
0,0,0,0,0,0,0,0,0,0,2294,2294,2294,2294,2294,2294,
0,0,0,0,0,0,0,0,0,2294,2294,2294,2294,2294,2294,2294,
0,0,0,0,0,0,0,0,0,2294,2294,2294,2294,2294,2294,2294,
0,0,0,0,0,0,0,0,2294,2294,2294,2294,2294,2294,2294,0,
0,0,0,0,0,0,0,2294,2294,2294,2294,2294,2294,2294,0,0,
0,0,0,0,0,0,0,2294,2294,2294,2294,2294,2294,0,0,0,
0,0,0,0,0,0,2294,2294,2294,2294,2294,2294,0,0,0,0
</chunk>
   <chunk x="32" y="-48" width="16" height="16">
0,0,0,0,0,0,0,0,0,0,0,0,0,0,0,0,
2294,2294,0,0,0,0,0,0,0,0,0,0,0,0,0,0,
2294,2294,0,0,0,0,0,0,0,0,0,0,0,0,0,0,
2294,2294,0,0,0,0,0,0,0,0,0,0,0,0,0,0,
2294,2294,0,0,0,0,0,0,0,0,0,0,0,0,0,0,
2294,2294,0,0,0,0,0,0,0,0,0,0,0,0,0,0,
2294,2294,0,0,0,0,0,0,0,0,0,0,0,0,0,0,
2294,2294,0,0,0,0,0,0,0,0,0,0,0,0,0,0,
2294,2294,0,0,0,0,0,0,0,0,0,0,0,0,0,0,
2294,2294,0,0,0,0,0,0,0,0,0,0,0,0,0,0,
2294,0,0,0,0,0,0,0,0,0,0,0,0,0,0,0,
0,0,0,0,0,0,0,0,0,0,0,0,0,0,0,0,
0,0,0,0,0,0,0,0,0,0,0,0,0,0,0,0,
0,0,0,0,0,0,0,0,0,0,0,0,0,0,0,0,
0,0,0,0,0,0,0,0,0,0,0,0,0,0,0,0,
0,0,0,0,0,0,0,0,0,0,0,0,0,0,0,0
</chunk>
   <chunk x="0" y="-32" width="16" height="16">
0,0,0,0,0,0,0,0,0,0,0,0,0,0,0,0,
0,0,0,0,0,0,0,0,0,0,0,0,0,0,0,0,
0,0,0,0,0,0,0,0,0,0,0,0,0,0,0,0,
0,0,0,0,0,0,0,0,0,0,0,0,0,0,0,0,
0,0,0,0,0,0,0,0,0,0,0,0,0,0,0,0,
0,0,0,0,0,0,0,0,0,0,0,0,0,0,0,0,
0,0,0,0,0,0,0,0,0,0,0,0,0,0,0,0,
0,0,0,0,0,0,0,0,0,0,0,0,0,0,0,0,
0,0,0,0,0,0,0,0,0,0,0,0,0,0,0,0,
0,0,0,0,0,0,0,0,0,0,0,0,0,0,0,2294,
0,0,0,0,0,0,0,0,0,0,0,0,0,0,2294,2294,
0,0,0,0,0,0,0,0,0,0,0,0,2294,2294,2294,2294,
0,0,0,0,0,0,0,0,0,0,0,0,2294,2294,2294,2294,
0,0,0,0,0,0,0,0,0,0,0,2294,2294,2294,2294,2294,
0,0,0,0,0,0,0,0,0,2294,2294,2294,2294,2294,2294,2294,
0,0,0,0,0,0,0,2294,2294,2294,2294,2294,2294,2294,2294,2294
</chunk>
   <chunk x="16" y="-32" width="16" height="16">
0,0,0,0,0,2294,2294,2294,2294,2294,2294,0,0,0,0,0,
0,0,0,2294,2294,2294,2294,2294,2294,2294,0,0,0,0,0,0,
0,0,2294,2294,2294,2294,2294,2294,2294,2294,0,0,0,0,0,0,
0,0,2294,2294,2294,2294,2294,2294,2294,0,0,0,0,0,0,0,
0,0,2294,2294,2294,2294,2294,0,0,0,0,0,0,0,0,0,
0,2294,2294,2294,2294,2294,0,0,0,0,0,0,0,0,0,0,
0,2294,2294,2294,2294,2294,0,0,0,0,0,0,0,0,0,0,
2294,2294,2294,2294,2294,0,0,0,0,0,0,0,0,0,0,0,
2294,2294,2294,2294,2294,0,0,0,0,0,0,0,0,0,0,0,
2294,2294,2294,2294,0,0,0,0,0,0,0,0,0,0,0,0,
2294,2294,2294,2294,0,0,0,0,0,0,0,0,0,0,0,0,
2294,2294,2294,0,0,0,0,0,0,0,0,0,0,0,0,0,
2294,2294,2294,0,0,0,0,0,0,0,0,0,0,0,0,0,
2294,2294,2294,0,0,0,0,0,0,0,0,0,0,0,0,0,
2294,2294,2294,0,0,0,0,0,0,0,0,0,0,0,0,0,
2294,2294,2294,0,0,0,0,0,0,0,0,0,0,0,0,0
</chunk>
   <chunk x="-16" y="-16" width="16" height="16">
0,0,0,0,0,0,0,0,0,0,0,0,0,0,0,0,
0,0,0,0,0,0,0,0,0,0,2294,2294,2294,2294,2294,2294,
0,0,0,0,0,0,0,0,0,2294,2294,2294,2294,2294,2294,2294,
0,0,0,0,0,0,0,0,2294,2294,2294,2294,2294,2294,2294,2294,
0,0,0,0,0,0,0,0,2294,2294,2294,2294,2294,2294,2294,2294,
0,0,0,0,0,0,0,0,2294,2294,2294,2294,2294,2294,2294,2294,
0,0,0,0,0,0,0,0,2294,2294,2294,2294,2294,2294,2294,2294,
0,0,0,0,0,0,0,0,2294,2294,2294,2294,2294,2294,2294,2294,
0,0,0,0,0,0,0,0,2294,2294,2294,2294,2294,2294,2294,2294,
0,0,0,0,0,0,0,0,2294,2294,2294,2294,2294,2294,2294,2294,
0,0,0,0,0,0,0,0,0,2294,2294,2294,2294,2294,2294,2294,
0,0,0,0,0,0,0,0,0,2294,2294,2294,2294,2294,2294,2294,
0,0,0,0,0,0,0,0,0,0,0,0,0,0,0,0,
0,0,0,0,0,0,0,0,0,0,0,0,0,0,0,0,
0,0,0,0,0,0,0,0,0,0,0,0,0,0,0,0,
0,0,0,0,0,0,0,0,0,0,0,0,0,0,0,0
</chunk>
   <chunk x="0" y="-16" width="16" height="16">
0,0,0,0,0,0,0,2294,2294,2294,2294,2294,2294,2294,2294,2294,
2294,2294,2294,2294,2294,2294,2294,2294,2294,2294,2294,2294,0,0,2294,2294,
2294,2294,2294,2294,2294,2294,2294,2294,2294,2294,2294,0,0,0,2294,2294,
2294,2294,2294,2294,2294,2294,2294,2294,2294,2294,0,0,0,0,0,2294,
2294,2294,2294,2294,2294,2294,2294,2294,0,0,0,0,0,0,0,2294,
2294,2294,2294,2294,2294,2294,2294,0,0,0,0,0,0,0,2294,2294,
2294,2294,2294,2294,2294,2294,2294,0,0,0,0,0,0,0,2294,2294,
2294,2294,2294,2294,2294,2294,0,0,0,0,0,0,0,0,2294,2294,
2294,2294,2294,2294,2294,2294,0,0,0,0,0,0,0,0,2294,2294,
2294,2294,2294,2294,2294,0,0,0,0,0,0,0,0,0,0,2294,
2294,2294,2294,2294,0,0,0,0,0,0,0,0,0,0,0,2294,
2294,2294,2294,0,0,0,0,0,0,0,0,0,0,0,0,2294,
0,0,0,0,0,0,0,0,0,0,0,0,0,0,0,2294,
0,0,0,0,0,0,0,0,0,0,0,0,0,0,0,2294,
0,0,0,0,0,0,0,0,0,0,0,0,0,0,0,2294,
0,0,0,0,0,0,0,0,0,0,0,0,0,0,0,0
</chunk>
   <chunk x="16" y="-16" width="16" height="16">
2294,2294,2294,0,0,0,0,0,0,0,0,0,0,0,0,0,
2294,2294,0,0,0,0,0,0,0,0,0,0,0,0,0,0,
2294,2294,2294,0,0,0,0,0,0,0,0,0,0,0,0,0,
2294,2294,2294,0,0,0,0,0,0,0,0,0,0,0,0,0,
2294,2294,2294,0,0,0,0,0,0,0,0,0,0,0,0,0,
2294,2294,0,0,0,0,0,0,0,0,0,0,0,0,0,0,
2294,2294,0,0,0,0,0,0,0,0,0,0,0,0,0,0,
2294,2294,2294,0,0,0,0,0,0,0,0,0,0,0,0,0,
2294,2294,2294,0,0,0,0,0,0,0,0,0,0,0,0,0,
2294,2294,2294,0,0,0,0,0,0,0,0,0,0,0,0,0,
2294,2294,2294,0,0,0,0,0,0,0,0,0,0,0,0,0,
2294,2294,2294,0,0,0,0,0,0,0,0,0,0,0,0,0,
2294,2294,2294,0,0,0,0,0,0,0,0,0,0,0,0,0,
2294,2294,2294,0,0,0,0,0,0,0,0,0,0,0,0,0,
2294,2294,2294,0,0,0,0,0,0,0,0,0,0,0,0,0,
0,0,0,0,0,0,0,0,0,0,0,0,0,0,0,0
</chunk>
  </data>
 </layer>
 <layer id="1" name="ground" width="5" height="5">
  <data encoding="csv">
   <chunk x="16" y="-80" width="16" height="16">
0,0,0,0,0,0,0,0,0,0,0,0,0,0,0,0,
0,0,0,0,0,0,0,0,0,0,0,0,0,0,0,0,
0,0,0,0,0,0,0,0,0,0,0,0,0,0,0,0,
0,0,0,0,0,0,0,0,0,0,0,0,0,0,0,0,
0,0,0,0,0,0,0,0,0,0,0,0,0,0,0,0,
0,0,0,0,0,0,0,0,0,0,0,0,0,0,0,0,
0,0,0,0,0,0,0,0,0,0,0,0,0,0,0,0,
0,0,0,0,0,0,0,0,0,0,0,0,0,0,0,0,
0,0,0,0,0,0,0,0,0,0,0,0,0,0,0,0,
0,0,0,0,0,0,0,0,0,0,0,0,0,0,0,0,
0,0,0,0,0,0,0,0,0,0,0,0,0,0,0,0,
0,0,0,0,0,0,0,0,0,0,0,0,0,0,0,0,
0,0,0,841,843,0,0,0,0,0,0,0,0,0,0,0,
0,0,0,878,875,0,0,0,0,0,0,0,0,0,0,0,
0,0,841,910,875,0,0,0,0,0,0,0,0,0,0,0,
841,909,910,844,907,0,0,0,0,0,0,0,0,0,0,0
</chunk>
   <chunk x="0" y="-64" width="16" height="16">
0,0,0,0,0,0,0,0,0,0,0,0,0,0,0,841,
0,0,0,0,0,0,0,0,0,0,0,0,0,0,0,873,
0,0,0,0,0,0,0,0,0,0,0,0,0,0,841,910,
0,0,0,0,0,0,0,0,0,0,0,0,0,841,910,844,
0,0,0,0,0,0,0,0,0,0,0,0,841,910,874,876,
0,0,0,0,0,0,0,0,0,0,0,0,878,874,874,876,
0,0,0,0,0,0,0,0,0,0,0,0,878,874,874,876,
0,0,0,0,0,0,0,0,0,0,0,0,905,845,846,876,
0,0,0,0,0,0,0,0,0,0,0,0,0,0,878,908,
0,0,0,0,0,0,0,0,0,0,0,0,0,0,905,846,
0,0,0,0,0,0,0,0,0,0,0,0,0,0,0,905,
0,0,0,0,0,0,0,0,0,0,0,0,0,0,0,0,
0,0,0,0,0,0,0,0,0,0,0,0,0,0,0,0,
0,0,0,0,0,0,0,0,0,0,0,0,0,0,0,0,
0,0,0,0,0,0,0,0,0,0,0,0,0,0,0,0,
0,0,0,0,0,0,0,0,0,0,0,0,0,0,0,0
</chunk>
   <chunk x="16" y="-64" width="16" height="16">
910,844,845,907,0,0,0,0,0,0,0,0,0,0,0,0,
844,907,0,0,0,0,0,0,0,0,0,0,0,0,0,0,
875,0,0,0,0,0,0,0,0,0,0,0,0,0,0,0,
907,0,0,0,0,0,0,0,0,0,0,0,0,0,0,0,
0,0,0,0,0,0,0,0,0,0,0,0,0,0,0,0,
0,0,0,0,0,0,0,0,0,0,0,0,0,0,0,0,
0,0,0,0,0,0,0,0,0,0,0,0,0,0,0,0,
0,0,0,0,0,0,0,0,0,0,0,0,0,0,0,0,
843,0,0,0,0,0,0,0,0,0,0,0,0,0,0,0,
908,909,843,0,0,0,0,0,0,0,0,0,0,0,0,0,
845,846,908,842,909,842,843,0,0,0,0,0,0,0,0,0,
0,905,906,845,845,846,908,842,843,0,0,0,0,0,0,0,
0,0,0,0,0,873,874,874,876,0,0,0,0,0,0,0,
0,0,0,0,0,873,874,874,876,0,0,0,0,0,0,0,
0,0,0,0,0,873,874,874,908,843,0,0,0,0,0,0,
841,909,842,842,909,910,874,874,874,876,0,0,0,0,0,0
</chunk>
   <chunk x="-32" y="-48" width="16" height="16">
0,0,0,0,0,0,0,0,0,0,0,0,0,0,0,0,
0,0,0,0,0,0,0,0,0,0,0,0,0,0,1323,1420,
0,0,0,0,0,0,0,0,0,0,0,0,0,0,1423,1353,
0,0,0,0,0,0,0,0,0,0,0,0,0,0,1417,1390,
0,0,0,0,0,0,0,0,0,0,0,0,0,0,1417,1355,
0,0,0,0,0,0,0,0,0,0,0,0,0,0,1353,1327,
0,0,0,0,0,0,0,0,0,0,0,0,0,0,1358,1353,
0,0,0,0,0,0,0,0,0,0,0,0,0,0,1423,1294,
0,0,0,0,0,0,0,0,0,0,0,0,0,0,1354,1354,
0,0,0,0,0,0,0,0,0,0,0,0,0,0,1391,1291,
0,0,0,0,0,0,0,0,0,0,0,0,0,0,1292,1356,
0,0,0,0,0,0,0,0,0,0,0,0,0,0,1354,1292,
0,0,0,0,0,0,0,0,0,0,0,0,0,0,1323,1359,
0,0,0,0,0,0,0,0,0,0,0,0,0,0,1388,1359,
0,0,0,0,0,0,0,0,0,0,0,0,0,0,1356,1323,
0,0,0,0,0,0,0,0,0,0,0,0,0,0,1353,1358
</chunk>
   <chunk x="-16" y="-48" width="16" height="16">
0,0,0,0,0,0,0,0,0,0,0,0,0,0,0,0,
1418,1389,1387,1322,1359,1423,1325,1422,1386,1322,1294,1323,1327,1357,1390,1355,
1359,1389,1388,1325,1295,1422,1386,1295,1293,1386,1357,1355,1294,1418,1387,1294,
1324,1325,1390,1358,1292,1357,1321,1388,1417,1323,1385,1421,1421,1354,1389,1417,
1353,1418,1355,1422,1290,1420,1289,1353,1321,1326,1323,1290,1356,1388,1386,1387,
1386,1418,1422,1324,1358,1326,1356,1385,1294,1289,1388,1291,1325,1391,1321,1353,
1419,1354,1291,1421,1321,1386,1388,1327,1323,1326,1417,1358,1423,1386,1355,1357,
1417,1289,1388,1356,1422,1419,1291,1321,1418,1324,1387,1321,1387,1327,1291,1417,
1295,1387,1358,1324,1324,1321,1321,1388,1391,1419,1358,1322,1356,1358,1389,1385,
1325,1418,1358,1386,1421,1326,1359,1420,1422,1353,1357,1326,1358,1327,1358,1326,
1295,1422,1325,1422,1353,1355,1417,1390,1295,1356,1421,1325,1422,1423,1353,1354,
1422,1325,1289,1419,1322,1293,1390,1292,1290,1289,1422,1354,1294,1353,1326,1295,
1423,1353,1356,1422,1289,1385,1294,1323,1387,1326,1327,1356,1391,1289,1290,1324,
1385,1324,1294,1326,1353,1294,1322,1417,1389,1324,1355,1294,1423,1390,1289,1390,
1355,1321,1289,1324,1293,1423,1359,1359,1322,1295,1358,1322,1353,1420,1321,1357,
1389,1421,1321,1354,1391,1294,1390,1294,1391,1391,1289,1358,1359,1327,1324,1356
</chunk>
   <chunk x="0" y="-48" width="16" height="16">
0,0,0,0,0,0,0,0,0,0,0,0,0,0,0,841,
1391,1295,1387,1390,1321,1326,1357,1357,1417,1419,1324,1387,1385,1354,1292,873,
1325,1321,1293,1420,1356,1359,1357,1387,1421,1419,1386,1417,1422,841,909,910,
1422,1323,1418,1290,1323,1292,1295,1294,1389,1321,1354,1323,1355,873,874,874,
1417,1353,1386,1420,1321,1325,1419,1289,1353,1324,1420,1290,1325,873,874,874,
1326,1421,1292,1423,1323,1422,1388,1421,1387,1390,1294,1323,1354,878,874,874,
1355,1290,1356,1292,1390,1353,1353,1290,1354,1388,1295,1324,1294,873,874,844,
1390,1292,1358,1321,1289,1417,1422,1353,1388,1327,1295,1389,1386,873,874,875,
1386,1387,1387,1359,1385,1418,1359,1421,1355,1294,1389,1292,1294,873,874,875,
1423,1354,1420,1327,1322,1322,1422,1419,1386,1387,841,909,909,910,874,875,
1292,1386,1291,1359,1385,1423,1324,1324,1391,1295,878,874,844,906,845,907,
1359,1294,1387,1322,1353,1423,1322,1294,1358,841,910,844,907,1422,1390,1417,
1419,1327,1292,1419,1390,1321,1289,1292,1355,873,874,876,1295,1327,1295,1417,
1389,1387,1422,1326,1358,1324,1291,1295,841,910,874,875,1325,1386,1295,1420,
1358,1423,1418,1388,1290,1385,1386,841,910,874,874,875,1324,1290,1293,1290,
1355,1289,1357,1390,1390,1290,1421,878,874,874,844,907,1421,1326,1289,1292
</chunk>
   <chunk x="16" y="-48" width="16" height="16">
910,874,844,906,906,906,906,906,845,907,0,0,0,0,0,0,
874,844,907,1418,1353,1418,1387,1385,1423,1358,1354,1294,1420,1353,1355,1289,
844,907,1358,1419,1386,1418,1420,1358,1389,1419,1294,1327,1326,1385,1289,1419,
875,1356,1355,1387,1294,1421,1327,1357,1388,1294,1386,1325,1322,1355,1391,1390,
875,1294,1387,1353,1385,1291,1353,1421,1423,1353,1326,1390,1289,1389,1327,1359,
876,1294,1418,1390,1417,1294,1385,1289,1423,1290,1354,1419,1423,1417,1327,2178,
907,1292,1327,1293,1289,1421,1389,1355,1359,1292,1295,1418,1391,1385,2178,2211,
1324,1391,1322,1326,1423,1355,1421,1324,1353,1419,1359,1322,1385,2178,2211,0,
1290,1386,1358,1353,1355,1325,1295,1385,1386,1295,1294,1391,2178,2211,0,0,
1355,1423,1289,1322,1290,1324,1289,1324,1290,1359,2178,2210,2211,0,0,2175,
1358,1385,1355,1295,1423,1355,1292,1353,1389,2178,2211,0,0,0,2175,2196,
1385,1358,1359,1293,1386,1293,1420,1387,1422,2194,0,0,0,2175,2196,1420,
1389,1353,1292,1323,1421,1358,1419,1389,1387,2194,0,0,2175,2196,1391,1353,
1356,1289,1356,1389,1423,1357,1358,1294,2178,2211,0,2175,2196,1356,1420,1325,
1417,1353,1322,1290,1423,1389,1324,2178,2211,0,2175,2196,1326,1326,1358,1292,
1326,1327,1391,1419,1327,1388,1327,2194,0,0,2192,1324,1326,1391,1327,1290
</chunk>
   <chunk x="32" y="-48" width="16" height="16">
0,0,0,0,0,0,0,0,0,0,0,0,0,0,0,0,
2194,0,0,0,0,0,0,0,0,0,0,0,0,0,0,0,
2194,0,0,0,0,0,0,0,0,0,0,0,0,0,0,0,
2194,0,0,0,0,0,0,0,0,0,0,0,0,0,0,0,
2194,0,0,0,0,0,0,0,0,0,0,0,0,0,0,0,
2211,0,0,0,0,0,0,0,0,0,0,0,0,0,0,0,
0,2175,0,0,0,0,0,0,0,0,0,0,0,0,0,0,
2175,2196,0,0,0,0,0,0,0,0,0,0,0,0,0,0,
2192,1418,0,0,0,0,0,0,0,0,0,0,0,0,0,0,
2196,1421,0,0,0,0,0,0,0,0,0,0,0,0,0,0,
1322,1355,0,0,0,0,0,0,0,0,0,0,0,0,0,0,
1321,1422,0,0,0,0,0,0,0,0,0,0,0,0,0,0,
1289,1354,0,0,0,0,0,0,0,0,0,0,0,0,0,0,
1419,1322,0,0,0,0,0,0,0,0,0,0,0,0,0,0,
1417,1290,0,0,0,0,0,0,0,0,0,0,0,0,0,0,
1325,0,0,0,0,0,0,0,0,0,0,0,0,0,0,0
</chunk>
   <chunk x="-32" y="-32" width="16" height="16">
0,0,0,0,0,0,0,0,0,0,0,0,0,0,1419,1389,
0,0,0,0,0,0,0,0,0,0,0,0,0,0,1357,1289,
0,0,0,0,0,0,0,0,0,0,0,0,0,0,1385,1417,
0,0,0,0,0,0,0,0,0,0,0,0,0,0,1323,1358,
0,0,0,0,0,0,0,0,0,0,0,0,0,0,1388,1322,
0,0,0,0,0,0,0,0,0,0,0,0,0,0,1355,1420,
0,0,0,0,0,0,0,0,0,0,0,0,0,0,1327,1388,
0,0,0,0,0,0,0,0,0,0,0,0,0,0,1325,1419,
0,0,0,0,0,0,0,0,0,0,0,0,0,0,1327,1420,
0,0,0,0,0,0,0,0,0,0,0,0,0,0,1386,1388,
0,0,0,0,0,0,0,0,0,0,0,0,0,0,1327,1388,
0,0,0,0,0,0,0,0,0,0,0,0,0,0,1292,1354,
0,0,0,0,0,0,0,0,0,0,0,0,0,0,1292,1327,
0,0,0,0,0,0,0,0,0,0,0,0,0,0,1327,1293,
0,0,0,0,0,0,0,0,0,0,0,0,0,0,1354,1387,
0,0,0,0,0,0,0,0,0,0,0,0,0,0,1290,1421
</chunk>
   <chunk x="-16" y="-32" width="16" height="16">
1325,1353,1391,1418,1293,1324,1325,1324,1294,1356,1421,1325,1294,1417,1417,1386,
1421,1294,1388,1321,1353,1390,1353,1321,1391,1290,1386,1417,1293,1321,1417,1357,
1418,1417,1421,1290,1421,1289,1421,1388,1417,1423,1423,1386,1391,1326,1354,1386,
1418,1423,1353,1385,1289,1290,1353,1385,1417,1295,1355,1295,1359,1325,1326,1323,
1293,1356,1289,1325,1356,1423,1289,1326,1293,1289,1321,1292,1289,1323,1291,1422,
1323,1385,1356,1325,1417,1358,1387,1417,1291,1354,1326,1325,1354,1358,1354,1325,
1388,1358,1417,1418,1417,1389,1321,1322,1292,1321,1422,1422,1289,1421,1359,1390,
1391,1359,1422,1387,1354,1387,1294,1353,1422,1355,1420,1356,1356,1355,1324,1294,
1357,1325,1325,1291,1353,1353,1423,1421,1295,1423,1323,1386,1355,1422,1359,1293,
1385,1389,1291,1388,1295,1355,1421,1327,1289,1423,1386,1418,1294,1354,1293,1294,
1423,1291,1391,1385,1327,1295,1418,1292,1353,1327,1388,1386,1292,1322,1417,1355,
1422,1422,1359,1355,1353,1356,1295,1420,1356,1385,1385,1326,1359,1294,1323,1321,
1385,1294,1353,1324,1327,1353,1295,1322,1323,1295,1325,1422,1390,1325,1391,1387,
1326,1290,1389,1322,1391,1387,1289,1353,1417,1295,1354,1292,1391,1418,1391,1290,
1289,1295,1327,1390,1385,1418,1327,1386,1389,1422,1295,1387,1291,1388,1327,1420,
1359,1389,1358,1321,1294,1355,1353,1354,1354,1391,1353,1388,1420,1419,1295,1294
</chunk>
   <chunk x="0" y="-32" width="16" height="16">
1417,1289,1290,1289,1387,1387,1292,878,874,874,876,1294,1294,1291,1388,1353,
1293,1421,1291,1294,1417,1422,1423,878,874,874,876,1353,1292,1327,1294,1386,
1325,1359,1387,1325,1417,841,909,910,844,906,907,1359,1322,1291,1321,1354,
1421,1295,1354,841,842,910,844,845,907,1291,1388,1419,1419,1323,1292,1326,
1354,1422,1421,878,874,844,907,1417,1385,1323,1321,1294,1385,1387,1327,1391,
1359,1353,1356,873,874,908,843,1294,1355,1419,1322,1292,1387,1326,1390,1418,
1419,1422,841,910,874,874,876,1418,1358,1326,1422,1388,1295,1386,1293,1353,
1390,1388,905,846,874,874,908,843,1326,1326,1292,1418,1391,1291,1420,1359,
1289,1358,1324,905,906,906,846,908,909,909,909,843,1321,1356,1421,1357,
1321,1325,1290,1421,1324,1386,905,906,846,874,874,876,1387,1420,1326,2178,
1359,1354,1420,1293,1292,1385,1326,1327,905,845,845,907,1390,1418,1357,2194,
1390,1423,1385,1322,1423,1390,1385,1387,1294,1291,1356,1289,1322,1327,2178,2211,
1418,1390,1353,1324,1390,1290,1388,1324,1354,1322,1419,1323,2178,2210,2211,0,
1422,1418,1353,1325,1355,1324,1387,1421,1387,1387,1321,2178,2211,0,0,0,
1391,1326,1289,1419,1417,1388,1294,1421,1326,1327,2178,2211,0,0,0,0,
1325,1391,1356,1291,1417,1354,1359,1356,2178,2210,2211,2175,2176,2177,0,0
</chunk>
   <chunk x="16" y="-32" width="16" height="16">
1421,1290,1387,1422,1324,2178,2210,2211,2175,2176,2196,1422,1422,1354,1423,1419,
1387,1290,1390,1289,2178,2211,0,0,2192,1324,1420,1290,1386,1357,1387,1290,
1323,1420,1294,2178,2211,0,0,2175,2196,1386,1324,1321,1417,1292,1292,1325,
1391,1353,2178,2211,0,2175,2176,2196,1295,1385,1293,1419,1326,1355,1323,0,
1420,1294,2194,0,0,2192,1418,1291,1295,1293,1357,1358,1325,1390,1422,0,
1358,1295,2194,0,0,2192,1391,1419,1420,1419,1323,1291,1355,1290,1325,0,
1390,2178,2211,0,2175,2196,1322,1388,1291,1391,1323,1353,1294,1420,0,0,
1387,2194,0,2175,2196,1291,1327,1358,1322,1324,1290,1419,1324,1293,0,0,
2178,2211,2175,2196,842,842,842,843,1289,1385,1418,1291,1418,1354,0,0,
2211,2175,2196,841,874,874,874,908,843,1292,1290,1417,1353,0,0,0,
0,2192,1325,905,906,846,874,874,876,1358,1295,1418,1356,0,0,0,
0,2192,1357,1418,1354,905,846,874,908,843,1326,1292,0,0,0,0,
0,2209,2179,1387,1385,1417,905,846,874,908,843,1390,0,0,0,0,
0,2175,2196,1354,1321,1323,1293,873,874,874,908,843,0,0,0,0,
0,2192,1417,1419,1290,1325,1321,905,906,846,874,875,0,0,0,0,
0,2209,2179,1322,1353,1357,1326,1353,1420,878,874,875,0,0,0,0
</chunk>
   <chunk x="32" y="-32" width="16" height="16">
1357,0,0,0,0,0,0,0,0,0,0,0,0,0,0,0,
0,0,0,0,0,0,0,0,0,0,0,0,0,0,0,0,
0,0,0,0,0,0,0,0,0,0,0,0,0,0,0,0,
0,0,0,0,0,0,0,0,0,0,0,0,0,0,0,0,
0,0,0,0,0,0,0,0,0,0,0,0,0,0,0,0,
0,0,0,0,0,0,0,0,0,0,0,0,0,0,0,0,
0,0,0,0,0,0,0,0,0,0,0,0,0,0,0,0,
0,0,0,0,0,0,0,0,0,0,0,0,0,0,0,0,
0,0,0,0,0,0,0,0,0,0,0,0,0,0,0,0,
0,0,0,0,0,0,0,0,0,0,0,0,0,0,0,0,
0,0,0,0,0,0,0,0,0,0,0,0,0,0,0,0,
0,0,0,0,0,0,0,0,0,0,0,0,0,0,0,0,
0,0,0,0,0,0,0,0,0,0,0,0,0,0,0,0,
0,0,0,0,0,0,0,0,0,0,0,0,0,0,0,0,
0,0,0,0,0,0,0,0,0,0,0,0,0,0,0,0,
0,0,0,0,0,0,0,0,0,0,0,0,0,0,0,0
</chunk>
   <chunk x="-32" y="-16" width="16" height="16">
0,0,0,0,0,0,0,0,0,0,0,0,0,0,1327,1325,
0,0,0,0,0,0,0,0,0,0,0,0,0,0,1289,1295,
0,0,0,0,0,0,0,0,0,0,0,0,0,0,1321,1292,
0,0,0,0,0,0,0,0,0,0,0,0,0,0,1420,1353,
0,0,0,0,0,0,0,0,0,0,0,0,0,0,1325,1386,
0,0,0,0,0,0,0,0,0,0,0,0,0,0,1323,1326,
0,0,0,0,0,0,0,0,0,0,0,0,0,0,1293,1391,
0,0,0,0,0,0,0,0,0,0,0,0,0,0,1326,1417,
0,0,0,0,0,0,0,0,0,0,0,0,0,0,1421,1418,
0,0,0,0,0,0,0,0,0,0,0,0,0,0,1357,1327,
0,0,0,0,0,0,0,0,0,0,0,0,0,0,1291,1327,
0,0,0,0,0,0,0,0,0,0,0,0,0,0,1358,1421,
0,0,0,0,0,0,0,0,0,0,0,0,0,0,1418,1421,
0,0,0,0,0,0,0,0,0,0,0,0,0,0,1422,1295,
0,0,0,0,0,0,0,0,0,0,0,0,0,0,1294,1289,
0,0,0,0,0,0,0,0,0,0,0,0,0,0,0,0
</chunk>
   <chunk x="-16" y="-16" width="16" height="16">
1388,1322,1420,1295,1423,1353,1326,1322,1290,1355,1289,1289,1294,1417,1353,1390,
1388,1358,1355,1391,1386,1389,1354,1294,1390,1389,1420,2178,2179,1355,1418,1324,
1326,1292,1391,1359,1289,1390,1423,1390,1355,2178,2210,2211,2209,2210,2210,2210,
1421,1391,1289,1389,1325,1290,1323,1391,1354,2194,0,0,0,0,0,0,
1354,1326,1354,1322,1321,1417,1422,1327,2178,2211,0,0,0,0,0,0,
1353,1418,1321,1324,1321,1388,1417,1355,2194,0,0,0,0,0,0,0,
1358,1357,1353,1322,1291,1423,1386,1385,2194,0,0,0,0,0,0,0,
1322,1324,1322,1354,1423,1388,1387,1387,2194,0,0,0,0,0,0,0,
1355,1357,1355,1326,1423,1420,1356,1390,2194,0,0,0,0,0,0,0,
1326,1327,1359,1295,1290,1354,1388,1418,2195,2177,0,0,0,0,0,0,
1324,1291,1326,1388,1354,1389,1289,1359,1420,2194,0,0,0,0,0,0,
1391,1291,1386,1294,1389,1388,1327,1388,1423,2195,2176,2176,2176,2176,2176,2176,
1322,1327,1356,1390,1420,1389,1387,1423,1355,1389,1418,1290,1387,1322,1359,1419,
1292,1355,1293,1290,1421,1327,1391,1391,1386,1359,1359,1289,1325,1389,1423,1387,
1321,1385,1421,1289,1295,1290,1358,1322,1290,1359,1390,1387,1423,1291,1322,1420,
0,0,0,0,0,0,0,0,0,0,0,0,0,0,0,0
</chunk>
   <chunk x="0" y="-16" width="16" height="16">
1324,1421,1327,1387,1385,1417,1417,1323,2194,0,2175,2196,1291,2195,2177,0,
1357,2178,2210,2210,2210,2210,2210,2210,2211,2175,2196,1423,1359,1423,2194,0,
2210,2211,0,0,0,0,0,0,2175,2196,1356,1391,1353,1326,2195,2177,
0,0,0,0,0,0,2175,2176,2196,1417,1356,1353,1357,1418,1289,2194,
0,0,0,0,0,0,2192,1357,1389,1421,1324,1419,1290,1354,1327,2194,
0,0,0,0,0,2175,2196,1422,1385,1289,1385,1417,1326,1359,2178,2211,
0,0,0,0,0,2192,1324,1294,1293,1391,1421,1386,1387,1421,2194,0,
0,0,0,0,0,2192,1387,1417,1294,1293,1323,1295,1291,1355,2194,0,
0,0,0,0,2175,2196,1325,1390,1321,1359,1324,1290,1323,1417,2195,2177,
0,0,0,2175,2196,1419,1292,1417,1322,1293,1420,1356,1322,1294,1321,2194,
0,2175,2176,2196,1390,1322,1289,1290,1290,1323,1390,1386,1327,1293,1293,2194,
2176,2196,1322,1289,1389,1390,1322,1326,1358,1323,1390,1292,1356,1421,1321,2194,
1290,1385,1385,1389,1421,1292,1421,1294,1356,1386,1355,1294,1295,1422,1359,2194,
1353,1355,1358,1420,1388,1326,1420,1423,1418,1358,1353,1321,1388,1419,1356,2194,
1419,1323,1389,1290,1355,1321,1295,1391,1293,1389,1417,1356,1388,1294,1419,2194,
0,0,0,0,0,0,0,0,0,0,0,0,0,0,0,0
</chunk>
   <chunk x="16" y="-16" width="16" height="16">
0,2175,2196,1325,1356,1322,1419,1295,1324,878,874,908,843,0,0,0,
0,2192,1293,1295,1422,1391,1323,1326,1386,905,846,874,876,0,0,0,
0,2209,2179,1385,1327,1294,1290,1421,1325,0,878,874,908,842,843,0,
0,0,2192,1357,1291,1354,1420,1291,0,0,905,846,874,874,875,0,
0,2175,2196,1322,1419,1294,1321,1422,0,0,0,873,874,874,876,0,
0,2192,1417,1390,1289,1327,1325,1289,0,0,0,878,874,874,876,0,
0,2192,1422,1418,1294,1417,1353,0,0,0,0,878,874,874,876,0,
0,2209,2179,1390,1357,1386,1323,0,0,0,0,905,846,874,908,843,
0,0,2192,1423,1387,1324,0,0,0,0,0,0,905,906,846,875,
0,0,2192,1420,1327,1294,0,0,0,0,0,0,0,0,905,907,
0,0,2192,1294,1327,1294,0,0,0,0,0,0,0,0,0,0,
0,0,2192,1291,1390,0,0,0,0,0,0,0,0,0,0,0,
0,0,2192,1357,1353,0,0,0,0,0,0,0,0,0,0,0,
0,0,2192,1420,1419,0,0,0,0,0,0,0,0,0,0,0,
0,0,2192,1293,0,0,0,0,0,0,0,0,0,0,0,0,
0,0,0,0,0,0,0,0,0,0,0,0,0,0,0,0
</chunk>
  </data>
 </layer>
 <layer id="3" name="hills" width="5" height="5">
  <data encoding="csv">
   <chunk x="16" y="-64" width="16" height="16">
0,0,0,0,0,0,0,0,0,0,0,0,0,0,0,0,
0,0,0,0,0,0,0,0,0,0,0,0,0,0,0,0,
0,0,0,0,0,0,0,0,0,0,0,0,0,0,0,0,
0,0,0,0,0,0,0,0,0,0,0,0,0,0,0,0,
0,0,0,0,0,0,0,0,0,0,0,0,0,0,0,0,
0,0,0,0,0,0,0,0,0,0,0,0,0,0,0,0,
0,0,0,0,0,0,0,0,0,0,0,0,0,0,0,0,
0,0,0,0,0,0,0,0,0,0,0,0,0,0,0,0,
0,0,0,0,0,0,0,0,0,0,0,0,0,0,0,0,
0,0,0,0,0,0,0,0,0,0,0,0,0,0,0,0,
0,0,0,0,0,0,0,0,0,0,0,0,0,0,0,0,
0,0,0,0,0,0,0,0,0,0,1481,0,0,0,0,0,
0,0,0,0,0,0,0,0,0,0,1481,0,0,0,0,0,
0,0,0,0,0,0,0,0,0,0,1513,1514,1514,1514,1515,0,
0,0,0,0,0,0,0,0,0,0,0,0,0,0,0,0,
0,0,0,0,0,0,0,0,0,0,0,0,0,0,0,0
</chunk>
   <chunk x="16" y="-48" width="16" height="16">
0,0,0,0,0,0,0,0,0,0,0,0,0,0,0,0,
0,0,0,0,0,0,0,0,0,0,0,0,0,0,1752,0,
0,0,0,0,0,0,0,0,0,0,0,0,0,0,1752,0,
0,0,0,0,0,0,0,0,0,0,0,0,0,0,1727,0,
0,0,1449,0,0,0,0,0,0,0,0,0,0,0,1727,0,
0,0,1481,0,0,0,0,0,0,0,0,0,1728,1776,1777,0,
0,0,1481,0,0,0,0,1483,0,0,0,1728,1777,0,0,0,
0,0,1481,0,0,0,0,1483,0,1728,1775,1777,0,0,0,0,
0,0,1513,1514,1514,1514,1514,1515,1728,1777,0,0,0,0,0,0,
0,0,0,0,0,0,0,1728,1777,0,0,0,0,0,0,0,
0,0,0,0,0,0,0,1752,0,0,0,0,0,0,0,0,
0,0,0,0,0,0,1728,1777,0,0,0,0,0,0,0,0,
0,0,0,0,0,1728,1777,0,0,0,0,0,0,0,0,0,
0,0,0,0,1728,1777,0,0,0,0,0,0,0,0,0,0,
0,0,0,1728,1777,0,0,0,0,0,0,0,0,0,0,0,
0,0,1728,1777,0,0,0,0,0,0,0,0,0,0,0,0
</chunk>
   <chunk x="-32" y="-32" width="16" height="16">
0,0,0,0,0,0,0,0,0,0,0,0,0,0,0,0,
0,0,0,0,0,0,0,0,0,0,0,0,0,0,0,0,
0,0,0,0,0,0,0,0,0,0,0,0,0,0,0,0,
0,0,0,0,0,0,0,0,0,0,0,0,0,0,0,0,
0,0,0,0,0,0,0,0,0,0,0,0,0,0,0,0,
0,0,0,0,0,0,0,0,0,0,0,0,0,0,0,0,
0,0,0,0,0,0,0,0,0,0,0,0,0,0,0,0,
0,0,0,0,0,0,0,0,0,0,0,0,0,0,0,0,
0,0,0,0,0,0,0,0,0,0,0,0,0,0,0,0,
0,0,0,0,0,0,0,0,0,0,0,0,0,0,0,0,
0,0,0,0,0,0,0,0,0,0,0,0,0,0,1876,1876,
0,0,0,0,0,0,0,0,0,0,0,0,0,0,1436,1343,
0,0,0,0,0,0,0,0,0,0,0,0,0,0,1343,1310,
0,0,0,0,0,0,0,0,0,0,0,0,0,0,1306,1339,
0,0,0,0,0,0,0,0,0,0,0,0,0,0,1337,1401,
0,0,0,0,0,0,0,0,0,0,0,0,0,0,1309,1307
</chunk>
   <chunk x="-16" y="-32" width="16" height="16">
0,0,0,0,0,0,0,0,0,0,0,0,0,0,0,0,
0,0,0,0,0,0,0,0,0,0,0,0,0,0,0,0,
0,0,0,0,0,0,0,0,0,0,0,0,0,0,0,0,
0,0,0,0,0,0,0,0,0,0,0,0,0,0,0,0,
0,0,0,0,0,0,0,0,0,0,0,0,0,0,0,0,
0,0,0,0,0,0,0,0,0,0,0,0,0,0,0,0,
0,0,0,0,0,0,0,0,0,0,0,0,0,0,0,0,
0,0,0,0,0,0,0,0,0,0,0,0,0,0,0,0,
0,0,0,0,0,0,0,0,0,0,0,0,0,0,0,0,
0,0,0,0,0,0,0,0,0,0,0,0,0,1449,0,0,
1874,1877,0,0,0,0,0,0,1449,1451,0,0,0,1481,0,0,
1374,1902,0,0,0,0,0,0,1513,1515,0,0,0,1481,1482,1482,
1405,1902,0,0,0,0,0,0,0,0,0,0,0,1513,1514,1514,
1372,1879,1874,1874,1874,1875,1874,1875,1877,0,0,0,0,0,0,0,
1433,1372,1339,1407,1338,1434,1435,1436,1929,1774,1775,1774,1774,1775,1775,1774,
1436,1402,1340,1339,1341,1369,1404,1340,1902,0,0,0,0,0,0,0
</chunk>
   <chunk x="0" y="-32" width="16" height="16">
0,0,0,0,0,0,0,0,0,0,0,0,0,0,0,0,
0,0,0,0,0,0,0,0,0,0,0,0,1578,1579,1579,1579,
0,0,0,0,0,0,0,0,0,0,0,0,1610,1611,1611,1611,
0,0,0,0,0,0,0,0,0,0,0,0,0,1728,1774,1774,
0,0,0,0,0,0,0,0,0,0,0,0,1728,1777,0,0,
0,0,0,0,0,0,0,0,0,0,0,0,1752,0,0,0,
0,0,0,0,0,0,0,0,0,0,0,0,1702,0,0,0,
0,0,0,0,0,0,0,0,0,0,0,0,1702,0,0,0,
0,0,0,0,0,0,0,0,0,0,0,0,1702,0,0,0,
0,0,1483,0,0,0,0,0,0,0,0,0,1752,0,0,0,
0,0,1483,0,0,0,0,0,0,0,0,0,1727,0,0,0,
1482,1482,1483,0,0,0,0,0,1728,1774,1775,1776,1777,0,0,0,
1514,1514,1515,0,0,0,0,1728,1777,0,0,0,0,0,0,0,
0,1728,1775,1775,1775,1729,0,1752,0,0,0,0,0,0,0,0,
1774,1777,0,0,0,1773,1774,1777,0,0,0,0,0,0,0,0,
0,0,0,0,0,0,0,0,0,0,0,0,0,0,0,0
</chunk>
   <chunk x="16" y="-32" width="16" height="16">
1580,0,1752,0,0,0,0,0,0,0,0,0,0,0,0,0,
1580,1728,1777,0,0,0,0,0,0,0,0,0,0,0,0,0,
1611,1777,0,0,0,0,0,0,0,0,0,0,0,0,0,0,
1777,0,0,0,0,0,0,0,0,0,0,0,0,0,0,0,
0,0,0,0,0,0,0,0,0,0,0,0,0,0,0,0,
0,0,0,0,0,0,0,0,0,0,0,0,0,0,0,0,
0,0,0,0,0,0,0,0,0,0,0,0,0,0,0,0,
0,0,0,0,0,0,0,0,0,0,0,0,0,0,0,0,
0,0,0,0,0,0,0,0,0,0,0,0,0,0,0,0,
0,0,0,0,0,0,0,0,0,0,0,0,0,0,0,0,
0,0,0,0,0,0,0,0,0,0,0,0,0,0,0,0,
0,0,0,0,0,0,0,0,0,0,0,0,0,0,0,0,
0,0,0,0,0,0,0,0,0,0,0,0,0,0,0,0,
0,0,0,0,0,0,0,0,0,0,0,0,0,0,0,0,
0,0,0,0,0,0,0,0,0,0,0,0,0,0,0,0,
0,0,0,0,0,0,0,0,0,0,0,0,0,0,0,0
</chunk>
   <chunk x="-32" y="-16" width="16" height="16">
0,0,0,0,0,0,0,0,0,0,0,0,0,0,1305,1405,
0,0,0,0,0,0,0,0,0,0,0,0,0,0,1306,1401,
0,0,0,0,0,0,0,0,0,0,0,0,0,0,1373,1309,
0,0,0,0,0,0,0,0,0,0,0,0,0,0,1407,1373,
0,0,0,0,0,0,0,0,0,0,0,0,0,0,1369,1406,
0,0,0,0,0,0,0,0,0,0,0,0,0,0,1438,1436,
0,0,0,0,0,0,0,0,0,0,0,0,0,0,1406,1307,
0,0,0,0,0,0,0,0,0,0,0,0,0,0,1341,1405,
0,0,0,0,0,0,0,0,0,0,0,0,0,0,1309,1407,
0,0,0,0,0,0,0,0,0,0,0,0,0,0,1306,1309,
0,0,0,0,0,0,0,0,0,0,0,0,0,0,1340,1306,
0,0,0,0,0,0,0,0,0,0,0,0,0,0,1403,1305,
0,0,0,0,0,0,0,0,0,0,0,0,0,0,1437,1371,
0,0,0,0,0,0,0,0,0,0,0,0,0,0,1437,1311,
0,0,0,0,0,0,0,0,0,0,0,0,0,0,1341,1372,
0,0,0,0,0,0,0,0,0,0,0,0,0,0,0,0
</chunk>
   <chunk x="-16" y="-16" width="16" height="16">
1403,1403,1311,1405,1309,1309,1372,1434,1927,0,0,0,0,0,0,0,
1342,1407,1308,1306,1405,1310,1343,1438,1902,0,0,0,0,0,0,0,
1337,1341,1403,1311,1369,1372,1979,1974,1977,0,0,0,0,0,0,0,
1305,1436,1305,1311,1405,1434,1929,1999,2002,0,0,0,0,0,0,0,
1340,1434,1439,1310,1307,1308,1954,2024,2027,0,0,0,0,0,0,0,
1373,1307,1435,1337,1405,1438,1927,0,0,0,0,0,0,0,0,0,
1436,1374,1438,1311,1407,1439,1952,0,0,0,0,0,0,0,0,0,
1403,1369,1342,1434,1372,1338,1952,0,0,0,0,0,0,0,0,0,
1439,1309,1439,1438,1371,1309,1927,0,0,0,0,0,0,0,0,0,
1342,1310,1372,1375,1337,1434,1902,0,0,0,0,0,0,0,0,0,
1407,1372,1438,1375,1310,1338,1902,0,0,0,0,0,0,0,0,0,
1374,1375,1311,1402,1434,1439,1902,0,0,0,0,0,0,0,0,0,
1307,1439,1370,1404,1375,1405,1902,0,0,0,0,0,0,0,0,0,
1436,1374,1435,1403,1337,1308,1927,0,0,0,0,0,0,0,0,0,
1401,1307,1401,1401,1373,1438,1952,0,0,0,0,0,0,0,0,0,
0,0,0,0,0,0,0,0,0,0,0,0,0,0,0,0
</chunk>
  </data>
 </layer>
 <layer id="5" name="bridges" width="5" height="5">
  <data encoding="csv">
   <chunk x="0" y="-32" width="16" height="16">
0,0,0,0,0,0,0,0,0,0,0,0,0,0,0,0,
0,0,0,0,0,0,0,0,0,0,0,0,0,0,0,0,
0,0,0,0,0,0,0,0,0,0,0,0,0,0,0,0,
0,0,0,0,0,0,0,0,0,0,0,0,0,0,0,0,
0,0,0,0,0,0,0,0,0,0,0,0,0,0,0,0,
0,0,0,0,0,0,0,0,0,0,0,0,0,0,0,0,
0,0,0,0,0,0,0,0,0,0,0,0,0,0,0,0,
0,0,0,0,0,0,0,0,0,0,0,0,0,0,0,0,
0,0,0,0,0,0,0,0,0,0,0,505,506,507,289,290,
0,0,0,0,0,0,0,0,0,0,0,533,534,535,317,318,
0,0,0,0,0,0,0,0,0,0,0,561,562,344,345,346,
0,0,0,0,0,0,0,0,0,0,0,0,0,0,0,0,
0,0,0,0,0,0,0,0,0,0,0,0,0,0,0,0,
0,0,0,0,0,0,0,0,0,0,0,0,0,0,0,0,
0,0,0,0,0,0,0,0,0,0,0,0,0,0,0,0,
0,0,0,0,0,0,0,0,0,0,0,0,0,0,0,0
</chunk>
   <chunk x="16" y="-32" width="16" height="16">
0,0,0,0,0,0,0,0,0,0,0,0,0,0,0,0,
0,0,0,0,0,0,0,0,0,0,0,0,0,0,0,0,
0,0,0,0,0,0,0,0,0,0,0,0,0,0,0,0,
0,0,0,0,0,0,0,0,0,0,0,0,0,0,0,0,
0,0,0,0,0,0,0,0,0,0,0,0,0,0,0,0,
0,0,0,0,0,0,0,0,0,0,0,0,0,0,0,0,
0,0,0,0,0,0,0,0,0,0,0,0,0,0,0,0,
0,0,0,0,0,0,0,0,0,0,0,0,0,0,0,0,
289,290,506,507,0,0,0,0,0,0,0,0,0,0,0,0,
317,318,534,535,0,0,0,0,0,0,0,0,0,0,0,0,
345,346,562,563,0,0,0,0,0,0,0,0,0,0,0,0,
0,0,0,0,0,0,0,0,0,0,0,0,0,0,0,0,
0,0,0,0,0,0,0,0,0,0,0,0,0,0,0,0,
0,0,0,0,0,0,0,0,0,0,0,0,0,0,0,0,
0,0,0,0,0,0,0,0,0,0,0,0,0,0,0,0,
0,0,0,0,0,0,0,0,0,0,0,0,0,0,0,0
</chunk>
  </data>
 </layer>
 <layer id="2" name="collision" width="5" height="5" opacity="0.5">
  <data encoding="csv">
   <chunk x="-32" y="-48" width="16" height="16">
0,0,0,0,0,0,0,0,0,0,0,0,0,0,0,0,
0,0,0,0,0,0,0,0,0,0,0,0,0,0,2325,0,
0,0,0,0,0,0,0,0,0,0,0,0,0,0,2325,0,
0,0,0,0,0,0,0,0,0,0,0,0,0,0,2325,0,
0,0,0,0,0,0,0,0,0,0,0,0,0,0,2325,0,
0,0,0,0,0,0,0,0,0,0,0,0,0,0,2325,0,
0,0,0,0,0,0,0,0,0,0,0,0,0,0,2325,0,
0,0,0,0,0,0,0,0,0,0,0,0,0,0,2325,0,
0,0,0,0,0,0,0,0,0,0,0,0,0,0,2325,0,
0,0,0,0,0,0,0,0,0,0,0,0,0,0,2325,0,
0,0,0,0,0,0,0,0,0,0,0,0,0,0,2325,0,
0,0,0,0,0,0,0,0,0,0,0,0,0,0,2325,0,
0,0,0,0,0,0,0,0,0,0,0,0,0,0,2325,0,
0,0,0,0,0,0,0,0,0,0,0,0,0,0,2325,0,
0,0,0,0,0,0,0,0,0,0,0,0,0,0,2325,0,
0,0,0,0,0,0,0,0,0,0,0,0,0,0,2325,0
</chunk>
   <chunk x="16" y="-48" width="16" height="16">
0,0,0,0,0,0,0,0,0,0,0,0,0,0,0,0,
0,0,0,0,0,0,0,0,0,0,0,0,0,0,2320,0,
0,0,0,0,0,0,0,0,0,0,0,0,0,0,2320,0,
0,0,0,0,0,0,0,0,0,0,0,0,0,0,2320,0,
0,0,0,0,0,0,0,0,0,0,0,0,0,0,2320,0,
0,0,0,0,0,0,0,0,0,0,0,0,2324,2320,2323,2331,
0,0,0,0,0,0,0,0,0,0,0,2324,2323,0,2331,2324,
0,0,0,0,0,0,0,0,0,2324,2320,2323,0,2331,2324,0,
0,0,0,0,0,0,0,0,2324,2323,0,0,2331,2324,0,0,
0,0,0,0,0,0,0,2324,2323,0,2331,2326,2324,0,0,2323,
0,0,0,0,0,0,0,2320,0,2331,2324,0,0,0,2323,2329,
0,0,0,0,0,0,2324,2323,0,2327,0,0,0,2323,2329,0,
0,0,0,0,0,2324,2323,0,0,2327,0,0,2323,2329,0,0,
0,0,0,0,2324,2323,0,0,2331,2324,0,2323,2329,0,0,0,
0,0,0,2324,2323,0,0,2331,2324,0,2323,2329,0,0,0,0,
0,0,2324,2323,0,0,0,2327,0,0,2325,0,0,0,0,0
</chunk>
   <chunk x="32" y="-48" width="16" height="16">
0,0,0,0,0,0,0,0,0,0,0,0,0,0,0,0,
2327,0,0,0,0,0,0,0,0,0,0,0,0,0,0,0,
2327,0,0,0,0,0,0,0,0,0,0,0,0,0,0,0,
2327,0,0,0,0,0,0,0,0,0,0,0,0,0,0,0,
2327,0,0,0,0,0,0,0,0,0,0,0,0,0,0,0,
2324,0,0,0,0,0,0,0,0,0,0,0,0,0,0,0,
0,2323,0,0,0,0,0,0,0,0,0,0,0,0,0,0,
2323,2329,0,0,0,0,0,0,0,0,0,0,0,0,0,0,
2325,0,0,0,0,0,0,0,0,0,0,0,0,0,0,0,
2329,0,0,0,0,0,0,0,0,0,0,0,0,0,0,0,
0,0,0,0,0,0,0,0,0,0,0,0,0,0,0,0,
0,0,0,0,0,0,0,0,0,0,0,0,0,0,0,0,
0,0,0,0,0,0,0,0,0,0,0,0,0,0,0,0,
0,0,0,0,0,0,0,0,0,0,0,0,0,0,0,0,
0,0,0,0,0,0,0,0,0,0,0,0,0,0,0,0,
0,0,0,0,0,0,0,0,0,0,0,0,0,0,0,0
</chunk>
   <chunk x="-32" y="-32" width="16" height="16">
0,0,0,0,0,0,0,0,0,0,0,0,0,0,2325,0,
0,0,0,0,0,0,0,0,0,0,0,0,0,0,2325,0,
0,0,0,0,0,0,0,0,0,0,0,0,0,0,2325,0,
0,0,0,0,0,0,0,0,0,0,0,0,0,0,2325,0,
0,0,0,0,0,0,0,0,0,0,0,0,0,0,2325,0,
0,0,0,0,0,0,0,0,0,0,0,0,0,0,2325,0,
0,0,0,0,0,0,0,0,0,0,0,0,0,0,2325,0,
0,0,0,0,0,0,0,0,0,0,0,0,0,0,2325,0,
0,0,0,0,0,0,0,0,0,0,0,0,0,0,2325,0,
0,0,0,0,0,0,0,0,0,0,0,0,0,0,2325,0,
0,0,0,0,0,0,0,0,0,0,0,0,0,0,2320,2320,
0,0,0,0,0,0,0,0,0,0,0,0,0,0,2325,0,
0,0,0,0,0,0,0,0,0,0,0,0,0,0,2325,0,
0,0,0,0,0,0,0,0,0,0,0,0,0,0,2325,0,
0,0,0,0,0,0,0,0,0,0,0,0,0,0,2325,0,
0,0,0,0,0,0,0,0,0,0,0,0,0,0,2325,0
</chunk>
   <chunk x="-16" y="-32" width="16" height="16">
0,0,0,0,0,0,0,0,0,0,0,0,0,0,0,0,
0,0,0,0,0,0,0,0,0,0,0,0,0,0,0,0,
0,0,0,0,0,0,0,0,0,0,0,0,0,0,0,0,
0,0,0,0,0,0,0,0,0,0,0,0,0,0,0,0,
0,0,0,0,0,0,0,0,0,0,0,0,0,0,0,0,
0,0,0,0,0,0,0,0,0,0,0,0,0,0,0,0,
0,0,0,0,0,0,0,0,0,0,0,0,0,0,0,0,
0,0,0,0,0,0,0,0,0,0,0,0,0,0,0,0,
0,0,0,0,0,0,0,0,0,0,0,0,0,0,0,0,
0,0,0,0,0,0,0,0,0,0,0,0,0,0,0,0,
2320,2322,0,0,0,0,0,0,0,0,0,0,0,0,0,0,
0,2320,0,0,0,0,0,0,0,0,0,0,0,0,0,0,
0,2320,0,0,0,0,0,0,0,0,0,0,0,0,0,0,
0,2321,2320,2320,2320,2320,2320,2320,2322,0,0,0,0,0,0,0,
0,0,0,0,0,0,0,0,2320,2320,2320,2320,2320,2320,2320,2320,
0,0,0,0,0,0,0,0,2320,0,0,0,0,0,0,0
</chunk>
   <chunk x="0" y="-32" width="16" height="16">
0,0,0,0,0,0,0,0,0,0,0,0,0,0,0,0,
0,0,0,0,0,0,0,0,0,0,0,0,0,0,0,0,
0,0,0,0,0,0,0,0,0,0,0,0,0,0,0,0,
0,0,0,0,0,0,0,0,0,0,0,0,0,2324,2320,2320,
0,0,0,0,0,0,0,0,0,0,0,0,2324,2323,0,0,
0,0,0,0,0,0,0,0,0,0,0,0,2320,0,0,0,
0,0,0,0,0,0,0,0,0,0,0,0,2320,0,0,0,
0,0,0,0,0,0,0,0,0,0,0,0,2320,0,0,0,
0,0,0,0,0,0,0,0,0,0,0,0,2320,2326,2326,2326,
0,0,0,0,0,0,0,0,0,0,0,0,0,0,0,0,
0,0,0,0,0,0,0,0,0,0,0,0,2326,2326,2326,2326,
0,0,0,0,0,0,0,0,2324,2320,2320,2320,2323,0,2331,2324,
0,0,0,0,0,0,0,2324,2323,0,0,0,2331,2326,2324,0,
0,2324,2320,2320,2320,2322,0,2320,0,0,0,2331,2324,0,0,0,
2320,2323,0,0,0,2321,2320,2323,0,0,2331,2324,0,0,0,0,
0,0,0,0,0,0,0,0,2331,2326,2324,2323,2328,2321,0,0
</chunk>
   <chunk x="16" y="-32" width="16" height="16">
0,0,2320,0,0,2331,2326,2324,2323,2328,2329,0,0,0,0,0,
0,2324,2323,0,2331,2324,0,0,2325,0,0,0,0,0,0,0,
2324,2323,0,2331,2324,0,0,2323,2329,0,0,0,0,0,0,0,
2323,0,2331,2324,0,2323,2328,2329,0,0,0,0,0,0,0,0,
0,0,2327,0,0,2325,0,0,0,0,0,0,0,0,0,0,
0,0,2327,0,0,2325,0,0,0,0,0,0,0,0,0,0,
0,2331,2324,0,2323,2329,0,0,0,0,0,0,0,0,0,0,
0,2327,0,2323,2329,0,0,0,0,0,0,0,0,0,0,0,
2326,2324,2326,2329,0,0,0,0,0,0,0,0,0,0,0,0,
0,0,0,0,0,0,0,0,0,0,0,0,0,0,0,0,
2326,2326,2326,0,0,0,0,0,0,0,0,0,0,0,0,0,
0,2325,0,0,0,0,0,0,0,0,0,0,0,0,0,0,
0,2322,2332,0,0,0,0,0,0,0,0,0,0,0,0,0,
0,2323,2329,0,0,0,0,0,0,0,0,0,0,0,0,0,
0,2325,0,0,0,0,0,0,0,0,0,0,0,0,0,0,
0,2322,2332,0,0,0,0,0,0,0,0,0,0,0,0,0
</chunk>
   <chunk x="-32" y="-16" width="16" height="16">
0,0,0,0,0,0,0,0,0,0,0,0,0,0,2325,0,
0,0,0,0,0,0,0,0,0,0,0,0,0,0,2325,0,
0,0,0,0,0,0,0,0,0,0,0,0,0,0,2325,0,
0,0,0,0,0,0,0,0,0,0,0,0,0,0,2325,0,
0,0,0,0,0,0,0,0,0,0,0,0,0,0,2325,0,
0,0,0,0,0,0,0,0,0,0,0,0,0,0,2325,0,
0,0,0,0,0,0,0,0,0,0,0,0,0,0,2325,0,
0,0,0,0,0,0,0,0,0,0,0,0,0,0,2325,0,
0,0,0,0,0,0,0,0,0,0,0,0,0,0,2325,0,
0,0,0,0,0,0,0,0,0,0,0,0,0,0,2325,0,
0,0,0,0,0,0,0,0,0,0,0,0,0,0,2325,0,
0,0,0,0,0,0,0,0,0,0,0,0,0,0,2325,0,
0,0,0,0,0,0,0,0,0,0,0,0,0,0,2325,0,
0,0,0,0,0,0,0,0,0,0,0,0,0,0,2325,0,
0,0,0,0,0,0,0,0,0,0,0,0,0,0,2322,2326,
0,0,0,0,0,0,0,0,0,0,0,0,0,0,0,0
</chunk>
   <chunk x="-16" y="-16" width="16" height="16">
0,0,0,0,0,0,0,0,2320,0,0,0,0,0,0,0,
0,0,0,0,0,0,0,0,2320,0,0,2331,2332,0,0,0,
0,0,0,0,0,0,2331,2320,2320,0,2326,2324,2322,2326,2326,2326,
0,0,0,0,0,0,2320,0,2320,2327,0,0,0,0,0,0,
0,0,0,0,0,0,2320,2320,2320,2324,0,0,0,0,0,0,
0,0,0,0,0,0,2320,0,2327,0,0,0,0,0,0,0,
0,0,0,0,0,0,2320,0,2327,0,0,0,0,0,0,0,
0,0,0,0,0,0,2320,0,2327,0,0,0,0,0,0,0,
0,0,0,0,0,0,2320,0,2327,0,0,0,0,0,0,0,
0,0,0,0,0,0,2320,0,2330,2321,0,0,0,0,0,0,
0,0,0,0,0,0,2320,0,0,2327,0,0,0,0,0,0,
0,0,0,0,0,0,2320,0,0,2330,2328,2328,2328,2328,2328,2328,
0,0,0,0,0,0,2320,0,0,0,0,0,0,0,0,0,
0,0,0,0,0,0,2320,0,0,0,0,0,0,0,0,0,
2326,2326,2326,2326,2326,2326,2320,2326,2326,2326,2326,2326,2326,2326,2326,2326,
0,0,0,0,0,0,0,0,0,0,0,0,0,0,0,0
</chunk>
   <chunk x="0" y="-16" width="16" height="16">
0,0,0,0,0,0,0,0,2327,0,2323,2329,0,2330,2321,0,
0,2331,2326,2326,2326,2326,2326,2326,2324,2323,2329,0,0,0,2327,0,
2326,2324,0,0,0,0,0,0,2323,2329,0,0,0,0,2330,2321,
0,0,0,0,0,0,2323,2328,2329,0,0,0,0,0,0,2327,
0,0,0,0,0,0,2325,0,0,0,0,0,0,0,0,2327,
0,0,0,0,0,2323,2329,0,0,0,0,0,0,0,2331,2324,
0,0,0,0,0,2325,0,0,0,0,0,0,0,0,2327,0,
0,0,0,0,0,2325,0,0,0,0,0,0,0,0,2327,0,
0,0,0,0,2323,2329,0,0,0,0,0,0,0,0,2330,2321,
0,0,0,2323,2329,0,0,0,0,0,0,0,0,0,0,2327,
0,2323,2328,2329,0,0,0,0,0,0,0,0,0,0,0,2327,
2328,2329,0,0,0,0,0,0,0,0,0,0,0,0,0,2327,
0,0,0,0,0,0,0,0,0,0,0,0,0,0,0,2327,
0,0,0,0,0,0,0,0,0,0,0,0,0,0,0,2327,
2326,2326,2326,2326,2326,2326,2326,2326,2326,2326,2326,2326,2326,2326,2326,2324,
0,0,0,0,0,0,0,0,0,0,0,0,0,0,0,0
</chunk>
   <chunk x="16" y="-16" width="16" height="16">
0,2323,2329,0,0,0,0,0,0,0,0,0,0,0,0,0,
0,2325,0,0,0,0,0,0,0,0,0,0,0,0,0,0,
0,2322,2332,0,0,0,0,0,0,0,0,0,0,0,0,0,
0,0,2325,0,0,0,0,0,0,0,0,0,0,0,0,0,
0,2323,2329,0,0,0,0,0,0,0,0,0,0,0,0,0,
0,2325,0,0,0,0,0,0,0,0,0,0,0,0,0,0,
0,2325,0,0,0,0,0,0,0,0,0,0,0,0,0,0,
0,2322,2332,0,0,0,0,0,0,0,0,0,0,0,0,0,
0,0,2325,0,0,0,0,0,0,0,0,0,0,0,0,0,
0,0,2325,0,0,0,0,0,0,0,0,0,0,0,0,0,
0,0,2325,0,0,0,0,0,0,0,0,0,0,0,0,0,
0,0,2325,0,0,0,0,0,0,0,0,0,0,0,0,0,
0,0,2325,0,0,0,0,0,0,0,0,0,0,0,0,0,
0,0,2325,0,0,0,0,0,0,0,0,0,0,0,0,0,
0,0,2325,0,0,0,0,0,0,0,0,0,0,0,0,0,
0,0,0,0,0,0,0,0,0,0,0,0,0,0,0,0
</chunk>
  </data>
 </layer>
 <objectgroup id="6" name="objects">
  <object id="1" type="houses" gid="2311" x="369.333" y="-950.667" width="192" height="224"/>
  <object id="2" type="houses" gid="2312" x="-96.6667" y="-628" width="192" height="224"/>
  <object id="3" type="houses" gid="2312" x="585.333" y="-1252" width="192" height="224"/>
  <object id="4" type="houses" gid="2311" x="824" y="-1609.33" width="192" height="224"/>
  <object id="5" type="decorations" gid="2314" x="-252.667" y="-647" width="62" height="52"/>
  <object id="7" gid="2313" x="-285" y="-1148" width="416" height="288"/>
 </objectgroup>
</map>
