<?xml version="1.0" encoding="UTF-8"?>
<map version="1.10" tiledversion="1.11.1-99-gec89c545" orientation="orthogonal" renderorder="right-down" width="13" height="9" tilewidth="32" tileheight="32" infinite="0" nextlayerid="7" nextobjectid="1">
 <tileset firstgid="1" name="FL_Houses_ext_terrain_floors" tilewidth="32" tileheight="32" tilecount="396" columns="22">
  <image source="../../../../../../Загрузки/FL_Houses_v1.0/_PNG/Exterriors/FL_Houses_ext_terrain_floors.png" width="704" height="576"/>
 </tileset>
 <tileset firstgid="397" name="FL_Houses_ext_building elements" tilewidth="32" tileheight="32" tilecount="1190" columns="35">
  <image source="../../../../../../Загрузки/FL_Houses_v1.0/_PNG/Exterriors/FL_Houses_ext_building elements.png" width="1120" height="1088"/>
 </tileset>
 <tileset firstgid="1587" name="FL_Houses_ext_Walls" tilewidth="32" tileheight="32" tilecount="870" columns="29">
  <image source="../../../../../../Загрузки/FL_Houses_v1.0/_PNG/Exterriors/Walls/FL_Houses_ext_Walls.png" width="928" height="960"/>
 </tileset>
 <tileset firstgid="2457" name="FL_Houses_ext_roofsA1" tilewidth="32" tileheight="32" tilecount="784" columns="28">
  <image source="../../../../../../Загрузки/FL_Houses_v1.0/_PNG/Exterriors/Roofs/FL_Houses_ext_roofsA1.png" width="896" height="896"/>
 </tileset>
 <tileset firstgid="3241" name="FL_Houses_ext_roofsA2" tilewidth="32" tileheight="32" tilecount="784" columns="28">
  <image source="../../../../../../Загрузки/FL_Houses_v1.0/_PNG/Exterriors/Roofs/FL_Houses_ext_roofsA2.png" width="896" height="896"/>
 </tileset>
 <tileset firstgid="4025" name="FL_Houses_ext_roofsA3" tilewidth="32" tileheight="32" tilecount="784" columns="28">
  <image source="../../../../../../Загрузки/FL_Houses_v1.0/_PNG/Exterriors/Roofs/FL_Houses_ext_roofsA3.png" width="896" height="896"/>
 </tileset>
 <tileset firstgid="4809" name="FL_Houses_ext_roofsB" tilewidth="32" tileheight="32" tilecount="589" columns="31">
  <image source="../../../../../../Загрузки/FL_Houses_v1.0/_PNG/Exterriors/Roofs/FL_Houses_ext_roofsB.png" width="992" height="608"/>
 </tileset>
 <tileset firstgid="5398" name="FL_Houses_ext_side_Roofs" tilewidth="32" tileheight="32" tilecount="696" columns="24">
  <image source="../../../../../../Загрузки/FL_Houses_v1.0/_PNG/Exterriors/Roofs/FL_Houses_ext_side_Roofs.png" width="768" height="928"/>
 </tileset>
 <tileset firstgid="6094" name="FL_Houses_decoratives" tilewidth="32" tileheight="32" tilecount="1044" columns="29">
  <image source="../../../../../../Загрузки/FL_Houses_v1.0/_PNG/FL_Houses_decoratives.png" width="928" height="1152"/>
 </tileset>
 <layer id="1" name="ground" width="13" height="9">
  <data encoding="csv">
0,0,0,0,0,0,0,0,0,0,0,0,0,
0,0,15,16,16,16,16,16,16,16,16,17,0,
0,0,37,38,38,38,38,38,38,38,38,39,0,
0,0,37,38,38,38,38,38,38,38,38,39,0,
0,0,37,38,38,38,38,38,38,38,38,39,0,
0,0,37,38,38,38,38,38,38,38,38,39,0,
0,0,37,38,38,38,38,38,38,38,38,39,0,
0,0,59,60,60,60,60,60,60,60,60,61,0,
0,0,0,0,0,0,0,0,0,0,0,0,0
</data>
 </layer>
 <layer id="2" name="base" width="13" height="9">
  <data encoding="csv">
0,0,0,0,0,0,0,0,0,0,0,0,0,
0,5886,0,0,0,0,0,0,0,0,0,0,0,
0,0,0,0,0,0,0,0,0,0,0,0,0,
0,0,0,0,0,0,0,0,0,0,0,0,0,
0,0,0,0,0,0,0,0,0,0,0,0,0,
0,5949,5922,2415,2418,2415,2417,2415,2416,2415,2416,2419,0,
6065,5967,5968,2446,2445,2445,2445,2447,2446,2446,2444,2448,0,
6063,6064,5949,0,0,0,0,0,0,0,0,0,0,
6087,6088,0,0,0,0,0,0,0,0,0,0,0
</data>
 </layer>
 <layer id="3" name="doors" width="13" height="9">
  <data encoding="csv">
0,0,0,0,0,0,0,0,0,0,0,0,0,
0,0,0,0,0,0,0,0,0,0,0,0,0,
0,0,0,0,0,0,0,0,0,0,0,0,0,
0,0,0,0,0,0,0,0,0,0,0,0,0,
0,0,0,0,0,0,0,0,0,0,0,0,0,
6513,6514,6326,646,647,0,993,994,0,646,647,6895,6896,
6542,6543,6355,681,682,0,1028,1029,0,681,682,6924,6925,
0,6433,6564,0,0,0,0,0,0,0,0,0,0,
0,0,0,0,0,0,0,0,0,0,0,0,0
</data>
 </layer>
 <layer id="6" name="windows" width="13" height="9">
  <data encoding="csv">
0,0,0,0,0,0,0,0,0,0,0,0,0,
0,0,0,0,0,0,0,0,0,0,0,0,0,
0,0,0,0,0,0,0,0,0,0,0,0,0,
0,0,0,0,0,0,0,0,0,0,0,0,0,
0,0,0,0,0,0,0,0,0,0,0,0,0,
0,0,0,0,704,705,0,0,704,705,0,0,0,
0,0,0,0,739,740,0,0,739,740,0,0,0,
0,0,0,0,0,0,0,0,0,0,0,0,0,
0,0,0,0,0,0,0,0,0,0,0,0,0
</data>
 </layer>
 <layer id="4" name="roof" width="13" height="9">
  <data encoding="csv">
0,0,0,0,4817,4818,4819,4820,4821,4822,0,0,0,
0,0,4817,4818,4810,4849,4850,4851,4852,4820,4821,4822,0,
5413,5414,5415,4849,4841,4880,4881,4882,4883,4851,4852,4853,0,
5437,5438,5605,4880,4872,4911,4912,4913,4914,4882,4883,4884,0,
5437,5438,5605,4911,4903,2260,2260,2260,2260,4913,4914,4915,0,
5461,5462,5629,4942,0,0,0,0,0,4944,4945,4946,0,
5485,5486,5653,0,0,0,0,0,0,0,0,0,0,
0,0,0,0,0,0,0,0,0,0,0,0,0,
0,0,0,0,0,0,0,0,0,0,0,0,0
</data>
 </layer>
 <layer id="5" name="roof_decorations" width="13" height="9">
  <data encoding="csv">
0,0,0,0,0,0,0,671,672,0,0,0,0,
0,0,0,0,0,0,0,706,707,0,0,0,0,
0,0,0,0,0,0,0,0,0,0,0,0,0,
0,0,0,0,0,0,0,0,0,0,0,0,0,
0,0,0,0,0,0,0,0,0,0,0,0,0,
0,0,0,0,0,0,0,0,0,0,0,0,0,
0,0,0,0,0,0,0,0,0,0,0,0,0,
0,0,0,0,0,0,0,0,0,0,0,0,0,
0,0,0,0,0,0,0,0,0,0,0,0,0
</data>
 </layer>
</map>
